Luts/moody_gym_grade-chatgpt.cube
LUT_3D_SIZE 9
0.000000 0.000000 0.050000
0.044167 0.003333 0.052500
0.176667 0.013333 0.060000
0.309167 0.023333 0.067500
0.441667 0.033333 0.075000
0.574167 0.043333 0.082500
0.706667 0.053333 0.090000
0.839167 0.063333 0.097500
0.883333 0.066667 0.100000
0.004167 0.043333 0.052500
0.048333 0.046667 0.055000
0.180833 0.056667 0.062500
0.313333 0.066667 0.070000
0.445833 0.076667 0.077500
0.578333 0.086667 0.085000
0.710833 0.096667 0.092500
0.843333 0.106667 0.100000
0.887500 0.110000 0.102500
0.016667 0.173333 0.060000
0.060833 0.176667 0.062500
0.193333 0.186667 0.070000
0.325833 0.196667 0.077500
0.458333 0.206667 0.085000
0.590833 0.216667 0.092500
0.723333 0.226667 0.100000
0.855833 0.236667 0.107500
0.900000 0.240000 0.110000
0.029167 0.303333 0.067500
0.073333 0.306667 0.070000
0.205833 0.316667 0.077500
0.338333 0.326667 0.085000
0.470833 0.336667 0.092500
0.603333 0.346667 0.100000
0.735833 0.356667 0.107500
0.868333 0.366667 0.115000
0.912500 0.370000 0.117500
0.041667 0.433333 0.075000
0.085833 0.436667 0.077500
0.218333 0.446667 0.085000
0.350833 0.456667 0.092500
0.483333 0.466667 0.100000
0.615833 0.476667 0.107500
0.748333 0.486667 0.115000
0.880833 0.496667 0.122500
0.925000 0.500000 0.125000
0.054167 0.563333 0.082500
0.098333 0.566667 0.085000
0.230833 0.576667 0.092500
0.363333 0.586667 0.100000
0.495833 0.596667 0.107500
0.628333 0.606667 0.115000
0.760833 0.616667 0.122500
0.893333 0.626667 0.130000
0.937500 0.630000 0.132500
0.066667 0.693333 0.090000
0.110833 0.696667 0.092500
0.243333 0.706667 0.100000
0.375833 0.716667 0.107500
0.508333 0.726667 0.115000
0.640833 0.736667 0.122500
0.773333 0.746667 0.130000
0.905833 0.756667 0.137500
0.950000 0.760000 0.140000
0.079167 0.823333 0.097500
0.123333 0.826667 0.100000
0.255833 0.836667 0.107500
0.388333 0.846667 0.115000
0.520833 0.856667 0.122500
0.653333 0.866667 0.130000
0.785833 0.876667 0.137500
0.918333 0.886667 0.145000
0.962500 0.890000 0.147500
0.083333 0.866667 0.100000
0.127500 0.870000 0.102500
0.260000 0.880000 0.110000
0.392500 0.890000 0.117500
0.525000 0.900000 0.125000
0.657500 0.910000 0.132500
0.790000 0.920000 0.140000
0.922500 0.930000 0.147500
0.966667 0.933333 0.150000
0.004167 0.003333 0.092500
0.048333 0.006667 0.095000
0.180833 0.016667 0.102500
0.313333 0.026667 0.110000
0.445833 0.036667 0.117500
0.578333 0.046667 0.125000
0.710833 0.056667 0.132500
0.843333 0.066667 0.140000
0.887500 0.070000 0.142500
0.008333 0.046667 0.095000
0.052500 0.050000 0.097500
0.185000 0.060000 0.105000
0.317500 0.070000 0.112500
0.450000 0.080000 0.120000
0.582500 0.090000 0.127500
0.715000 0.100000 0.135000
0.847500 0.110000 0.142500
0.891667 0.113333 0.145000
0.020833 0.176667 0.102500
0.065000 0.180000 0.105000
0.197500 0.190000 0.112500
0.330000 0.200000 0.120000
0.462500 0.210000 0.127500
0.595000 0.220000 0.135000
0.727500 0.230000 0.142500
0.860000 0.240000 0.150000
0.904167 0.243333 0.152500
0.033333 0.306667 0.110000
0.077500 0.310000 0.112500
0.210000 0.320000 0.120000
0.342500 0.330000 0.127500
0.475000 0.340000 0.135000
0.607500 0.350000 0.142500
0.740000 0.360000 0.150000
0.872500 0.370000 0.157500
0.916667 0.373333 0.160000
0.045833 0.436667 0.117500
0.090000 0.440000 0.120000
0.222500 0.450000 0.127500
0.355000 0.460000 0.135000
0.487500 0.470000 0.142500
0.620000 0.480000 0.150000
0.752500 0.490000 0.157500
0.885000 0.500000 0.165000
0.929167 0.503333 0.167500
0.058333 0.566667 0.125000
0.102500 0.570000 0.127500
0.235000 0.580000 0.135000
0.367500 0.590000 0.142500
0.500000 0.600000 0.150000
0.632500 0.610000 0.157500
0.765000 0.620000 0.165000
0.897500 0.630000 0.172500
0.941667 0.633333 0.175000
0.070833 0.696667 0.132500
0.115000 0.700000 0.135000
0.247500 0.710000 0.142500
0.380000 0.720000 0.150000
0.512500 0.730000 0.157500
0.645000 0.740000 0.165000
0.777500 0.750000 0.172500
0.910000 0.760000 0.180000
0.954167 0.763333 0.182500
0.083333 0.826667 0.140000
0.127500 0.830000 0.142500
0.260000 0.840000 0.150000
0.392500 0.850000 0.157500
0.525000 0.860000 0.165000
0.657500 0.870000 0.172500
0.790000 0.880000 0.180000
0.922500 0.890000 0.187500
0.966667 0.893333 0.190000
0.087500 0.870000 0.142500
0.131667 0.873333 0.145000
0.264167 0.883333 0.152500
0.396667 0.893333 0.160000
0.529167 0.903333 0.167500
0.661667 0.913333 0.175000
0.794167 0.923333 0.182500
0.926667 0.933333 0.190000
0.970833 0.936667 0.192500
0.016667 0.013333 0.220000
0.060833 0.016667 0.222500
0.193333 0.026667 0.230000
0.325833 0.036667 0.237500
0.458333 0.046667 0.245000
0.590833 0.056667 0.252500
0.723333 0.066667 0.260000
0.855833 0.076667 0.267500
0.900000 0.080000 0.270000
0.020833 0.056667 0.222500
0.065000 0.060000 0.225000
0.197500 0.070000 0.232500
0.330000 0.080000 0.240000
0.462500 0.090000 0.247500
0.595000 0.100000 0.255000
0.727500 0.110000 0.262500
0.860000 0.120000 0.270000
0.904167 0.123333 0.272500
0.033333 0.186667 0.230000
0.077500 0.190000 0.232500
0.210000 0.200000 0.240000
0.342500 0.210000 0.247500
0.475000 0.220000 0.255000
0.607500 0.230000 0.262500
0.740000 0.240000 0.270000
0.872500 0.250000 0.277500
0.916667 0.253333 0.280000
0.045833 0.316667 0.237500
0.090000 0.320000 0.240000
0.222500 0.330000 0.247500
0.355000 0.340000 0.255000
0.487500 0.350000 0.262500
0.620000 0.360000 0.270000
0.752500 0.370000 0.277500
0.885000 0.380000 0.285000
0.929167 0.383333 0.287500
0.058333 0.446667 0.245000
0.102500 0.450000 0.247500
0.235000 0.460000 0.255000
0.367500 0.470000 0.262500
0.500000 0.480000 0.270000
0.632500 0.490000 0.277500
0.765000 0.500000 0.285000
0.897500 0.510000 0.292500
0.941667 0.513333 0.295000
0.070833 0.576667 0.252500
0.115000 0.580000 0.255000
0.247500 0.590000 0.262500
0.380000 0.600000 0.270000
0.512500 0.610000 0.277500
0.645000 0.620000 0.285000
0.777500 0.630000 0.292500
0.910000 0.640000 0.300000
0.954167 0.643333 0.302500
0.083333 0.706667 0.260000
0.127500 0.710000 0.262500
0.260000 0.720000 0.270000
0.392500 0.730000 0.277500
0.525000 0.740000 0.285000
0.657500 0.750000 0.292500
0.790000 0.760000 0.300000
0.922500 0.770000 0.307500
0.966667 0.773333 0.310000
0.095833 0.836667 0.267500
0.140000 0.840000 0.270000
0.272500 0.850000 0.277500
0.405000 0.860000 0.285000
0.537500 0.870000 0.292500
0.670000 0.880000 0.300000
0.802500 0.890000 0.307500
0.935000 0.900000 0.315000
0.979167 0.903333 0.317500
0.100000 0.880000 0.270000
0.144167 0.883333 0.272500
0.276667 0.893333 0.280000
0.409167 0.903333 0.287500
0.541667 0.913333 0.295000
0.674167 0.923333 0.302500
0.806667 0.933333 0.310000
0.939167 0.943333 0.317500
0.983333 0.946667 0.320000
0.029167 0.023333 0.347500
0.073333 0.026667 0.350000
0.205833 0.036667 0.357500
0.338333 0.046667 0.365000
0.470833 0.056667 0.372500
0.603333 0.066667 0.380000
0.735833 0.076667 0.387500
0.868333 0.086667 0.395000
0.912500 0.090000 0.397500
0.033333 0.066667 0.350000
0.077500 0.070000 0.352500
0.210000 0.080000 0.360000
0.342500 0.090000 0.367500
0.475000 0.100000 0.375000
0.607500 0.110000 0.382500
0.740000 0.120000 0.390000
0.872500 0.130000 0.397500
0.916667 0.133333 0.400000
0.045833 0.196667 0.357500
0.090000 0.200000 0.360000
0.222500 0.210000 0.367500
0.355000 0.220000 0.375000
0.487500 0.230000 0.382500
0.620000 0.240000 0.390000
0.752500 0.250000 0.397500
0.885000 0.260000 0.405000
0.929167 0.263333 0.407500
0.058333 0.326667 0.365000
0.102500 0.330000 0.367500
0.235000 0.340000 0.375000
0.367500 0.350000 0.382500
0.500000 0.360000 0.390000
0.632500 0.370000 0.397500
0.765000 0.380000 0.405000
0.897500 0.390000 0.412500
0.941667 0.393333 0.415000
0.070833 0.456667 0.372500
0.115000 0.460000 0.375000
0.247500 0.470000 0.382500
0.380000 0.480000 0.390000
0.512500 0.490000 0.397500
0.645000 0.500000 0.405000
0.777500 0.510000 0.412500
0.910000 0.520000 0.420000
0.954167 0.523333 0.422500
0.083333 0.586667 0.380000
0.127500 0.590000 0.382500
0.260000 0.600000 0.390000
0.392500 0.610000 0.397500
0.525000 0.620000 0.405000
0.657500 0.630000 0.412500
0.790000 0.640000 0.420000
0.922500 0.650000 0.427500
0.966667 0.653333 0.430000
0.095833 0.716667 0.387500
0.140000 0.720000 0.390000
0.272500 0.730000 0.397500
0.405000 0.740000 0.405000
0.537500 0.750000 0.412500
0.670000 0.760000 0.420000
0.802500 0.770000 0.427500
0.935000 0.780000 0.435000
0.979167 0.783333 0.437500
0.108333 0.846667 0.395000
0.152500 0.850000 0.397500
0.285000 0.860000 0.405000
0.417500 0.870000 0.412500
0.550000 0.880000 0.420000
0.682500 0.890000 0.427500
0.815000 0.900000 0.435000
0.947500 0.910000 0.442500
0.991667 0.913333 0.445000
0.112500 0.890000 0.397500
0.156667 0.893333 0.400000
0.289167 0.903333 0.407500
0.421667 0.913333 0.415000
0.554167 0.923333 0.422500
0.686667 0.933333 0.430000
0.819167 0.943333 0.437500
0.951667 0.953333 0.445000
0.995833 0.956667 0.447500
0.041667 0.033333 0.475000
0.085833 0.036667 0.477500
0.218333 0.046667 0.485000
0.350833 0.056667 0.492500
0.483333 0.066667 0.500000
0.615833 0.076667 0.507500
0.748333 0.086667 0.515000
0.880833 0.096667 0.522500
0.925000 0.100000 0.525000
0.045833 0.076667 0.477500
0.090000 0.080000 0.480000
0.222500 0.090000 0.487500
0.355000 0.100000 0.495000
0.487500 0.110000 0.502500
0.620000 0.120000 0.510000
0.752500 0.130000 0.517500
0.885000 0.140000 0.525000
0.929167 0.143333 0.527500
0.058333 0.206667 0.485000
0.102500 0.210000 0.487500
0.235000 0.220000 0.495000
0.367500 0.230000 0.502500
0.500000 0.240000 0.510000
0.632500 0.250000 0.517500
0.765000 0.260000 0.525000
0.897500 0.270000 0.532500
0.941667 0.273333 0.535000
0.070833 0.336667 0.492500
0.115000 0.340000 0.495000
0.247500 0.350000 0.502500
0.380000 0.360000 0.510000
0.512500 0.370000 0.517500
0.645000 0.380000 0.525000
0.777500 0.390000 0.532500
0.910000 0.400000 0.540000
0.954167 0.403333 0.542500
0.083333 0.466667 0.500000
0.127500 0.470000 0.502500
0.260000 0.480000 0.510000
0.392500 0.490000 0.517500
0.525000 0.500000 0.525000
0.657500 0.510000 0.532500
0.790000 0.520000 0.540000
0.922500 0.530000 0.547500
0.966667 0.533333 0.550000
0.095833 0.596667 0.507500
0.140000 0.600000 0.510000
0.272500 0.610000 0.517500
0.405000 0.620000 0.525000
0.537500 0.630000 0.532500
0.670000 0.640000 0.540000
0.802500 0.650000 0.547500
0.935000 0.660000 0.555000
0.979167 0.663333 0.557500
0.108333 0.726667 0.515000
0.152500 0.730000 0.517500
0.285000 0.740000 0.525000
0.417500 0.750000 0.532500
0.550000 0.760000 0.540000
0.682500 0.770000 0.547500
0.815000 0.780000 0.555000
0.947500 0.790000 0.562500
0.991667 0.793333 0.565000
0.120833 0.856667 0.522500
0.165000 0.860000 0.525000
0.297500 0.870000 0.532500
0.430000 0.880000 0.540000
0.562500 0.890000 0.547500
0.695000 0.900000 0.555000
0.827500 0.910000 0.562500
0.960000 0.920000 0.570000
1.004167 0.923333 0.572500
0.125000 0.900000 0.525000
0.169167 0.903333 0.527500
0.301667 0.913333 0.535000
0.434167 0.923333 0.542500
0.566667 0.933333 0.550000
0.699167 0.943333 0.557500
0.831667 0.953333 0.565000
0.964167 0.963333 0.572500
1.008333 0.966667 0.575000
0.054167 0.043333 0.602500
0.098333 0.046667 0.605000
0.230833 0.056667 0.612500
0.363333 0.066667 0.620000
0.495833 0.076667 0.627500
0.628333 0.086667 0.635000
0.760833 0.096667 0.642500
0.893333 0.106667 0.650000
0.937500 0.110000 0.652500
0.058333 0.086667 0.605000
0.102500 0.090000 0.607500
0.235000 0.100000 0.615000
0.367500 0.110000 0.622500
0.500000 0.120000 0.630000
0.632500 0.130000 0.637500
0.765000 0.140000 0.645000
0.897500 0.150000 0.652500
0.941667 0.153333 0.655000
0.070833 0.216667 0.612500
0.115000 0.220000 0.615000
0.247500 0.230000 0.622500
0.380000 0.240000 0.630000
0.512500 0.250000 0.637500
0.645000 0.260000 0.645000
0.777500 0.270000 0.652500
0.910000 0.280000 0.660000
0.954167 0.283333 0.662500
0.083333 0.346667 0.620000
0.127500 0.350000 0.622500
0.260000 0.360000 0.630000
0.392500 0.370000 0.637500
0.525000 0.380000 0.645000
0.657500 0.390000 0.652500
0.790000 0.400000 0.660000
0.922500 0.410000 0.667500
0.966667 0.413333 0.670000
0.095833 0.476667 0.627500
0.140000 0.480000 0.630000
0.272500 0.490000 0.637500
0.405000 0.500000 0.645000
0.537500 0.510000 0.652500
0.670000 0.520000 0.660000
0.802500 0.530000 0.667500
0.935000 0.540000 0.675000
0.979167 0.543333 0.677500
0.108333 0.606667 0.635000
0.152500 0.610000 0.637500
0.285000 0.620000 0.645000
0.417500 0.630000 0.652500
0.550000 0.640000 0.660000
0.682500 0.650000 0.667500
0.815000 0.660000 0.675000
0.947500 0.670000 0.682500
0.991667 0.673333 0.685000
0.120833 0.736667 0.642500
0.165000 0.740000 0.645000
0.297500 0.750000 0.652500
0.430000 0.760000 0.660000
0.562500 0.770000 0.667500
0.695000 0.780000 0.675000
0.827500 0.790000 0.682500
0.960000 0.800000 0.690000
1.004167 0.803333 0.692500
0.133333 0.866667 0.650000
0.177500 0.870000 0.652500
0.310000 0.880000 0.660000
0.442500 0.890000 0.667500
0.575000 0.900000 0.675000
0.707500 0.910000 0.682500
0.840000 0.920000 0.690000
0.972500 0.930000 0.697500
1.016667 0.933333 0.700000
0.137500 0.910000 0.652500
0.181667 0.913333 0.655000
0.314167 0.923333 0.662500
0.446667 0.933333 0.670000
0.579167 0.943333 0.677500
0.711667 0.953333 0.685000
0.844167 0.963333 0.692500
0.976667 0.973333 0.700000
1.020833 0.976667 0.702500
0.066667 0.053333 0.730000
0.110833 0.056667 0.732500
0.243333 0.066667 0.740000
0.375833 0.076667 0.747500
0.508333 0.086667 0.755000
0.640833 0.096667 0.762500
0.773333 0.106667 0.770000
0.905833 0.116667 0.777500
0.950000 0.120000 0.780000
0.070833 0.096667 0.732500
0.115000 0.100000 0.735000
0.247500 0.110000 0.742500
0.380000 0.120000 0.750000
0.512500 0.130000 0.757500
0.645000 0.140000 0.765000
0.777500 0.150000 0.772500
0.910000 0.160000 0.780000
0.954167 0.163333 0.782500
0.083333 0.226667 0.740000
0.127500 0.230000 0.742500
0.260000 0.240000 0.750000
0.392500 0.250000 0.757500
0.525000 0.260000 0.765000
0.657500 0.270000 0.772500
0.790000 0.280000 0.780000
0.922500 0.290000 0.787500
0.966667 0.293333 0.790000
0.095833 0.356667 0.747500
0.140000 0.360000 0.750000
0.272500 0.370000 0.757500
0.405000 0.380000 0.765000
0.537500 0.390000 0.772500
0.670000 0.400000 0.780000
0.802500 0.410000 0.787500
0.935000 0.420000 0.795000
0.979167 0.423333 0.797500
0.108333 0.486667 0.755000
0.152500 0.490000 0.757500
0.285000 0.500000 0.765000
0.417500 0.510000 0.772500
0.550000 0.520000 0.780000
0.682500 0.530000 0.787500
0.815000 0.540000 0.795000
0.947500 0.550000 0.802500
0.991667 0.553333 0.805000
0.120833 0.616667 0.762500
0.165000 0.620000 0.765000
0.297500 0.630000 0.772500
0.430000 0.640000 0.780000
0.562500 0.650000 0.787500
0.695000 0.660000 0.795000
0.827500 0.670000 0.802500
0.960000 0.680000 0.810000
1.004167 0.683333 0.812500
0.133333 0.746667 0.770000
0.177500 0.750000 0.772500
0.310000 0.760000 0.780000
0.442500 0.770000 0.787500
0.575000 0.780000 0.795000
0.707500 0.790000 0.802500
0.840000 0.800000 0.810000
0.972500 0.810000 0.817500
1.016667 0.813333 0.820000
0.145833 0.876667 0.777500
0.190000 0.880000 0.780000
0.322500 0.890000 0.787500
0.455000 0.900000 0.795000
0.587500 0.910000 0.802500
0.720000 0.920000 0.810000
0.852500 0.930000 0.817500
0.985000 0.940000 0.825000
1.029167 0.943333 0.827500
0.150000 0.920000 0.780000
0.194167 0.923333 0.782500
0.326667 0.933333 0.790000
0.459167 0.943333 0.797500
0.591667 0.953333 0.805000
0.724167 0.963333 0.812500
0.856667 0.973333 0.820000
0.989167 0.983333 0.827500
1.033333 0.986667 0.830000
0.079167 0.063333 0.857500
0.123333 0.066667 0.860000
0.255833 0.076667 0.867500
0.388333 0.086667 0.875000
0.520833 0.096667 0.882500
0.653333 0.106667 0.890000
0.785833 0.116667 0.897500
0.918333 0.126667 0.905000
0.962500 0.130000 0.907500
0.083333 0.106667 0.860000
0.127500 0.110000 0.862500
0.260000 0.120000 0.870000
0.392500 0.130000 0.877500
0.525000 0.140000 0.885000
0.657500 0.150000 0.892500
0.790000 0.160000 0.900000
0.922500 0.170000 0.907500
0.966667 0.173333 0.910000
0.095833 0.236667 0.867500
0.140000 0.240000 0.870000
0.272500 0.250000 0.877500
0.405000 0.260000 0.885000
0.537500 0.270000 0.892500
0.670000 0.280000 0.900000
0.802500 0.290000 0.907500
0.935000 0.300000 0.915000
0.979167 0.303333 0.917500
0.108333 0.366667 0.875000
0.152500 0.370000 0.877500
0.285000 0.380000 0.885000
0.417500 0.390000 0.892500
0.550000 0.400000 0.900000
0.682500 0.410000 0.907500
0.815000 0.420000 0.915000
0.947500 0.430000 0.922500
0.991667 0.433333 0.925000
0.120833 0.496667 0.882500
0.165000 0.500000 0.885000
0.297500 0.510000 0.892500
0.430000 0.520000 0.900000
0.562500 0.530000 0.907500
0.695000 0.540000 0.915000
0.827500 0.550000 0.922500
0.960000 0.560000 0.930000
1.004167 0.563333 0.932500
0.133333 0.626667 0.890000
0.177500 0.630000 0.892500
0.310000 0.640000 0.900000
0.442500 0.650000 0.907500
0.575000 0.660000 0.915000
0.707500 0.670000 0.922500
0.840000 0.680000 0.930000
0.972500 0.690000 0.937500
1.016667 0.693333 0.940000
0.145833 0.756667 0.897500
0.190000 0.760000 0.900000
0.322500 0.770000 0.907500
0.455000 0.780000 0.915000
0.587500 0.790000 0.922500
0.720000 0.800000 0.930000
0.852500 0.810000 0.937500
0.985000 0.820000 0.945000
1.029167 0.823333 0.947500
0.158333 0.886667 0.905000
0.202500 0.890000 0.907500
0.335000 0.900000 0.915000
0.467500 0.910000 0.922500
0.600000 0.920000 0.930000
0.732500 0.930000 0.937500
0.865000 0.940000 0.945000
0.997500 0.950000 0.952500
1.041667 0.953333 0.955000
0.162500 0.930000 0.907500
0.206667 0.933333 0.910000
0.339167 0.943333 0.917500
0.471667 0.953333 0.925000
0.604167 0.963333 0.932500
0.736667 0.973333 0.940000
0.869167 0.983333 0.947500
1.001667 0.993333 0.955000
1.045833 0.996667 0.957500
0.083333 0.066667 0.900000
0.127500 0.070000 0.902500
0.260000 0.080000 0.910000
0.392500 0.090000 0.917500
0.525000 0.100000 0.925000
0.657500 0.110000 0.932500
0.790000 0.120000 0.940000
0.922500 0.130000 0.947500
0.966667 0.133333 0.950000
0.087500 0.110000 0.902500
0.131667 0.113333 0.905000
0.264167 0.123333 0.912500
0.396667 0.133333 0.920000
0.529167 0.143333 0.927500
0.661667 0.153333 0.935000
0.794167 0.163333 0.942500
0.926667 0.173333 0.950000
0.970833 0.176667 0.952500
0.100000 0.240000 0.910000
0.144167 0.243333 0.912500
0.276667 0.253333 0.920000
0.409167 0.263333 0.927500
0.541667 0.273333 0.935000
0.674167 0.283333 0.942500
0.806667 0.293333 0.950000
0.939167 0.303333 0.957500
0.983333 0.306667 0.960000
0.112500 0.370000 0.917500
0.156667 0.373333 0.920000
0.289167 0.383333 0.927500
0.421667 0.393333 0.935000
0.554167 0.403333 0.942500
0.686667 0.413333 0.950000
0.819167 0.423333 0.957500
0.951667 0.433333 0.965000
0.995833 0.436667 0.967500
0.125000 0.500000 0.925000
0.169167 0.503333 0.927500
0.301667 0.513333 0.935000
0.434167 0.523333 0.942500
0.566667 0.533333 0.950000
0.699167 0.543333 0.957500
0.831667 0.553333 0.965000
0.964167 0.563333 0.972500
1.008333 0.566667 0.975000
0.137500 0.630000 0.932500
0.181667 0.633333 0.935000
0.314167 0.643333 0.942500
0.446667 0.653333 0.950000
0.579167 0.663333 0.957500
0.711667 0.673333 0.965000
0.844167 0.683333 0.972500
0.976667 0.693333 0.980000
1.020833 0.696667 0.982500
0.150000 0.760000 0.940000
0.194167 0.763333 0.942500
0.326667 0.773333 0.950000
0.459167 0.783333 0.957500
0.591667 0.793333 0.965000
0.724167 0.803333 0.972500
0.856667 0.813333 0.980000
0.989167 0.823333 0.987500
1.033333 0.826667 0.990000
0.162500 0.890000 0.947500
0.206667 0.893333 0.950000
0.339167 0.903333 0.957500
0.471667 0.913333 0.965000
0.604167 0.923333 0.972500
0.736667 0.933333 0.980000
0.869167 0.943333 0.987500
1.001667 0.953333 0.995000
1.045833 0.956667 0.997500
0.166667 0.933333 0.950000
0.210833 0.936667 0.952500
0.343333 0.946667 0.960000
0.475833 0.956667 0.967500
0.608333 0.966667 0.975000
0.740833 0.976667 0.982500
0.873333 0.986667 0.990000
1.005833 0.996667 0.997500
1.050000 1.000000 1.000000
