Luts/moody_gym_grade-chatgpt.cube
LUT_3D_SIZE 5
0.000000 0.000000 0.050000
0.176667 0.013333 0.060000
0.441667 0.033333 0.075000
0.706667 0.053333 0.090000
0.883333 0.066667 0.100000
0.016667 0.173333 0.060000
0.193333 0.186667 0.070000
0.458333 0.206667 0.085000
0.723333 0.226667 0.100000
0.900000 0.240000 0.110000
0.041667 0.433333 0.075000
0.218333 0.446667 0.085000
0.483333 0.466667 0.100000
0.748333 0.486667 0.115000
0.925000 0.500000 0.125000
0.066667 0.693333 0.090000
0.243333 0.706667 0.100000
0.508333 0.726667 0.115000
0.773333 0.746667 0.130000
0.950000 0.760000 0.140000
0.083333 0.866667 0.100000
0.260000 0.880000 0.110000
0.525000 0.900000 0.125000
0.790000 0.920000 0.140000
0.966667 0.933333 0.150000
0.016667 0.013333 0.220000
0.193333 0.026667 0.230000
0.458333 0.046667 0.245000
0.723333 0.066667 0.260000
0.900000 0.080000 0.270000
0.033333 0.186667 0.230000
0.210000 0.200000 0.240000
0.475000 0.220000 0.255000
0.740000 0.240000 0.270000
0.916667 0.253333 0.280000
0.058333 0.446667 0.245000
0.235000 0.460000 0.255000
0.500000 0.480000 0.270000
0.765000 0.500000 0.285000
0.941667 0.513333 0.295000
0.083333 0.706667 0.260000
0.260000 0.720000 0.270000
0.525000 0.740000 0.285000
0.790000 0.760000 0.300000
0.966667 0.773333 0.310000
0.100000 0.880000 0.270000
0.276667 0.893333 0.280000
0.541667 0.913333 0.295000
0.806667 0.933333 0.310000
0.983333 0.946667 0.320000
0.041667 0.033333 0.475000
0.218333 0.046667 0.485000
0.483333 0.066667 0.500000
0.748333 0.086667 0.515000
0.925000 0.100000 0.525000
0.058333 0.206667 0.485000
0.235000 0.220000 0.495000
0.500000 0.240000 0.510000
0.765000 0.260000 0.525000
0.941667 0.273333 0.535000
0.083333 0.466667 0.500000
0.260000 0.480000 0.510000
0.525000 0.500000 0.525000
0.790000 0.520000 0.540000
0.966667 0.533333 0.550000
0.108333 0.726667 0.515000
0.285000 0.740000 0.525000
0.550000 0.760000 0.540000
0.815000 0.780000 0.555000
0.991667 0.793333 0.565000
0.125000 0.900000 0.525000
0.301667 0.913333 0.535000
0.566667 0.933333 0.550000
0.831667 0.953333 0.565000
1.008333 0.966667 0.575000
0.066667 0.053333 0.730000
0.243333 0.066667 0.740000
0.508333 0.086667 0.755000
0.773333 0.106667 0.770000
0.950000 0.120000 0.780000
0.083333 0.226667 0.740000
0.260000 0.240000 0.750000
0.525000 0.260000 0.765000
0.790000 0.280000 0.780000
0.966667 0.293333 0.790000
0.108333 0.486667 0.755000
0.285000 0.500000 0.765000
0.550000 0.520000 0.780000
0.815000 0.540000 0.795000
0.991667 0.553333 0.805000
0.133333 0.746667 0.770000
0.310000 0.760000 0.780000
0.575000 0.780000 0.795000
0.840000 0.800000 0.810000
1.016667 0.813333 0.820000
0.150000 0.920000 0.780000
0.326667 0.933333 0.790000
0.591667 0.953333 0.805000
0.856667 0.973333 0.820000
1.033333 0.986667 0.830000
0.083333 0.066667 0.900000
0.260000 0.080000 0.910000
0.525000 0.100000 0.925000
0.790000 0.120000 0.940000
0.966667 0.133333 0.950000
0.100000 0.240000 0.910000
0.276667 0.253333 0.920000
0.541667 0.273333 0.935000
0.806667 0.293333 0.950000
0.983333 0.306667 0.960000
0.125000 0.500000 0.925000
0.301667 0.513333 0.935000
0.566667 0.533333 0.950000
0.831667 0.553333 0.965000
1.008333 0.566667 0.975000
0.150000 0.760000 0.940000
0.326667 0.773333 0.950000
0.591667 0.793333 0.965000
0.856667 0.813333 0.980000
1.033333 0.826667 0.990000
0.166667 0.933333 0.950000
0.343333 0.946667 0.960000
0.608333 0.966667 0.975000
0.873333 0.986667 0.990000
1.050000 1.000000 1.000000
