Luts/moody_gym_grade-chatgpt.cube
LUT_3D_SIZE 33
0.000000 0.000000 0.050000
0.000000 0.000000 0.050000
0.000000 0.000000 0.050000
0.011042 0.000833 0.050625
0.044167 0.003333 0.052500
0.077292 0.005833 0.054375
0.110417 0.008333 0.056250
0.143542 0.010833 0.058125
0.176667 0.013333 0.060000
0.209792 0.015833 0.061875
0.242917 0.018333 0.063750
0.276042 0.020833 0.065625
0.309167 0.023333 0.067500
0.342292 0.025833 0.069375
0.375417 0.028333 0.071250
0.408542 0.030833 0.073125
0.441667 0.033333 0.075000
0.474792 0.035833 0.076875
0.507917 0.038333 0.078750
0.541042 0.040833 0.080625
0.574167 0.043333 0.082500
0.607292 0.045833 0.084375
0.640417 0.048333 0.086250
0.673542 0.050833 0.088125
0.706667 0.053333 0.090000
0.739792 0.055833 0.091875
0.772917 0.058333 0.093750
0.806042 0.060833 0.095625
0.839167 0.063333 0.097500
0.872292 0.065833 0.099375
0.883333 0.066667 0.100000
0.883333 0.066667 0.100000
0.883333 0.066667 0.100000
0.000000 0.000000 0.050000
0.000000 0.000000 0.050000
0.000000 0.000000 0.050000
0.011042 0.000833 0.050625
0.044167 0.003333 0.052500
0.077292 0.005833 0.054375
0.110417 0.008333 0.056250
0.143542 0.010833 0.058125
0.176667 0.013333 0.060000
0.209792 0.015833 0.061875
0.242917 0.018333 0.063750
0.276042 0.020833 0.065625
0.309167 0.023333 0.067500
0.342292 0.025833 0.069375
0.375417 0.028333 0.071250
0.408542 0.030833 0.073125
0.441667 0.033333 0.075000
0.474792 0.035833 0.076875
0.507917 0.038333 0.078750
0.541042 0.040833 0.080625
0.574167 0.043333 0.082500
0.607292 0.045833 0.084375
0.640417 0.048333 0.086250
0.673542 0.050833 0.088125
0.706667 0.053333 0.090000
0.739792 0.055833 0.091875
0.772917 0.058333 0.093750
0.806042 0.060833 0.095625
0.839167 0.063333 0.097500
0.872292 0.065833 0.099375
0.883333 0.066667 0.100000
0.883333 0.066667 0.100000
0.883333 0.066667 0.100000
0.000000 0.000000 0.050000
0.000000 0.000000 0.050000
0.000000 0.000000 0.050000
0.011042 0.000833 0.050625
0.044167 0.003333 0.052500
0.077292 0.005833 0.054375
0.110417 0.008333 0.056250
0.143542 0.010833 0.058125
0.176667 0.013333 0.060000
0.209792 0.015833 0.061875
0.242917 0.018333 0.063750
0.276042 0.020833 0.065625
0.309167 0.023333 0.067500
0.342292 0.025833 0.069375
0.375417 0.028333 0.071250
0.408542 0.030833 0.073125
0.441667 0.033333 0.075000
0.474792 0.035833 0.076875
0.507917 0.038333 0.078750
0.541042 0.040833 0.080625
0.574167 0.043333 0.082500
0.607292 0.045833 0.084375
0.640417 0.048333 0.086250
0.673542 0.050833 0.088125
0.706667 0.053333 0.090000
0.739792 0.055833 0.091875
0.772917 0.058333 0.093750
0.806042 0.060833 0.095625
0.839167 0.063333 0.097500
0.872292 0.065833 0.099375
0.883333 0.066667 0.100000
0.883333 0.066667 0.100000
0.883333 0.066667 0.100000
0.001042 0.010833 0.050625
0.001042 0.010833 0.050625
0.001042 0.010833 0.050625
0.012083 0.011667 0.051250
0.045208 0.014167 0.053125
0.078333 0.016667 0.055000
0.111458 0.019167 0.056875
0.144583 0.021667 0.058750
0.177708 0.024167 0.060625
0.210833 0.026667 0.062500
0.243958 0.029167 0.064375
0.277083 0.031667 0.066250
0.310208 0.034167 0.068125
0.343333 0.036667 0.070000
0.376458 0.039167 0.071875
0.409583 0.041667 0.073750
0.442708 0.044167 0.075625
0.475833 0.046667 0.077500
0.508958 0.049167 0.079375
0.542083 0.051667 0.081250
0.575208 0.054167 0.083125
0.608333 0.056667 0.085000
0.641458 0.059167 0.086875
0.674583 0.061667 0.088750
0.707708 0.064167 0.090625
0.740833 0.066667 0.092500
0.773958 0.069167 0.094375
0.807083 0.071667 0.096250
0.840208 0.074167 0.098125
0.873333 0.076667 0.100000
0.884375 0.077500 0.100625
0.884375 0.077500 0.100625
0.884375 0.077500 0.100625
0.004167 0.043333 0.052500
0.004167 0.043333 0.052500
0.004167 0.043333 0.052500
0.015208 0.044167 0.053125
0.048333 0.046667 0.055000
0.081458 0.049167 0.056875
0.114583 0.051667 0.058750
0.147708 0.054167 0.060625
0.180833 0.056667 0.062500
0.213958 0.059167 0.064375
0.247083 0.061667 0.066250
0.280208 0.064167 0.068125
0.313333 0.066667 0.070000
0.346458 0.069167 0.071875
0.379583 0.071667 0.073750
0.412708 0.074167 0.075625
0.445833 0.076667 0.077500
0.478958 0.079167 0.079375
0.512083 0.081667 0.081250
0.545208 0.084167 0.083125
0.578333 0.086667 0.085000
0.611458 0.089167 0.086875
0.644583 0.091667 0.088750
0.677708 0.094167 0.090625
0.710833 0.096667 0.092500
0.743958 0.099167 0.094375
0.777083 0.101667 0.096250
0.810208 0.104167 0.098125
0.843333 0.106667 0.100000
0.876458 0.109167 0.101875
0.887500 0.110000 0.102500
0.887500 0.110000 0.102500
0.887500 0.110000 0.102500
0.007292 0.075833 0.054375
0.007292 0.075833 0.054375
0.007292 0.075833 0.054375
0.018333 0.076667 0.055000
0.051458 0.079167 0.056875
0.084583 0.081667 0.058750
0.117708 0.084167 0.060625
0.150833 0.086667 0.062500
0.183958 0.089167 0.064375
0.217083 0.091667 0.066250
0.250208 0.094167 0.068125
0.283333 0.096667 0.070000
0.316458 0.099167 0.071875
0.349583 0.101667 0.073750
0.382708 0.104167 0.075625
0.415833 0.106667 0.077500
0.448958 0.109167 0.079375
0.482083 0.111667 0.081250
0.515208 0.114167 0.083125
0.548333 0.116667 0.085000
0.581458 0.119167 0.086875
0.614583 0.121667 0.088750
0.647708 0.124167 0.090625
0.680833 0.126667 0.092500
0.713958 0.129167 0.094375
0.747083 0.131667 0.096250
0.780208 0.134167 0.098125
0.813333 0.136667 0.100000
0.846458 0.139167 0.101875
0.879583 0.141667 0.103750
0.890625 0.142500 0.104375
0.890625 0.142500 0.104375
0.890625 0.142500 0.104375
0.010417 0.108333 0.056250
0.010417 0.108333 0.056250
0.010417 0.108333 0.056250
0.021458 0.109167 0.056875
0.054583 0.111667 0.058750
0.087708 0.114167 0.060625
0.120833 0.116667 0.062500
0.153958 0.119167 0.064375
0.187083 0.121667 0.066250
0.220208 0.124167 0.068125
0.253333 0.126667 0.070000
0.286458 0.129167 0.071875
0.319583 0.131667 0.073750
0.352708 0.134167 0.075625
0.385833 0.136667 0.077500
0.418958 0.139167 0.079375
0.452083 0.141667 0.081250
0.485208 0.144167 0.083125
0.518333 0.146667 0.085000
0.551458 0.149167 0.086875
0.584583 0.151667 0.088750
0.617708 0.154167 0.090625
0.650833 0.156667 0.092500
0.683958 0.159167 0.094375
0.717083 0.161667 0.096250
0.750208 0.164167 0.098125
0.783333 0.166667 0.100000
0.816458 0.169167 0.101875
0.849583 0.171667 0.103750
0.882708 0.174167 0.105625
0.893750 0.175000 0.106250
0.893750 0.175000 0.106250
0.893750 0.175000 0.106250
0.013542 0.140833 0.058125
0.013542 0.140833 0.058125
0.013542 0.140833 0.058125
0.024583 0.141667 0.058750
0.057708 0.144167 0.060625
0.090833 0.146667 0.062500
0.123958 0.149167 0.064375
0.157083 0.151667 0.066250
0.190208 0.154167 0.068125
0.223333 0.156667 0.070000
0.256458 0.159167 0.071875
0.289583 0.161667 0.073750
0.322708 0.164167 0.075625
0.355833 0.166667 0.077500
0.388958 0.169167 0.079375
0.422083 0.171667 0.081250
0.455208 0.174167 0.083125
0.488333 0.176667 0.085000
0.521458 0.179167 0.086875
0.554583 0.181667 0.088750
0.587708 0.184167 0.090625
0.620833 0.186667 0.092500
0.653958 0.189167 0.094375
0.687083 0.191667 0.096250
0.720208 0.194167 0.098125
0.753333 0.196667 0.100000
0.786458 0.199167 0.101875
0.819583 0.201667 0.103750
0.852708 0.204167 0.105625
0.885833 0.206667 0.107500
0.896875 0.207500 0.108125
0.896875 0.207500 0.108125
0.896875 0.207500 0.108125
0.016667 0.173333 0.060000
0.016667 0.173333 0.060000
0.016667 0.173333 0.060000
0.027708 0.174167 0.060625
0.060833 0.176667 0.062500
0.093958 0.179167 0.064375
0.127083 0.181667 0.066250
0.160208 0.184167 0.068125
0.193333 0.186667 0.070000
0.226458 0.189167 0.071875
0.259583 0.191667 0.073750
0.292708 0.194167 0.075625
0.325833 0.196667 0.077500
0.358958 0.199167 0.079375
0.392083 0.201667 0.081250
0.425208 0.204167 0.083125
0.458333 0.206667 0.085000
0.491458 0.209167 0.086875
0.524583 0.211667 0.088750
0.557708 0.214167 0.090625
0.590833 0.216667 0.092500
0.623958 0.219167 0.094375
0.657083 0.221667 0.096250
0.690208 0.224167 0.098125
0.723333 0.226667 0.100000
0.756458 0.229167 0.101875
0.789583 0.231667 0.103750
0.822708 0.234167 0.105625
0.855833 0.236667 0.107500
0.888958 0.239167 0.109375
0.900000 0.240000 0.110000
0.900000 0.240000 0.110000
0.900000 0.240000 0.110000
0.019792 0.205833 0.061875
0.019792 0.205833 0.061875
0.019792 0.205833 0.061875
0.030833 0.206667 0.062500
0.063958 0.209167 0.064375
0.097083 0.211667 0.066250
0.130208 0.214167 0.068125
0.163333 0.216667 0.070000
0.196458 0.219167 0.071875
0.229583 0.221667 0.073750
0.262708 0.224167 0.075625
0.295833 0.226667 0.077500
0.328958 0.229167 0.079375
0.362083 0.231667 0.081250
0.395208 0.234167 0.083125
0.428333 0.236667 0.085000
0.461458 0.239167 0.086875
0.494583 0.241667 0.088750
0.527708 0.244167 0.090625
0.560833 0.246667 0.092500
0.593958 0.249167 0.094375
0.627083 0.251667 0.096250
0.660208 0.254167 0.098125
0.693333 0.256667 0.100000
0.726458 0.259167 0.101875
0.759583 0.261667 0.103750
0.792708 0.264167 0.105625
0.825833 0.266667 0.107500
0.858958 0.269167 0.109375
0.892083 0.271667 0.111250
0.903125 0.272500 0.111875
0.903125 0.272500 0.111875
0.903125 0.272500 0.111875
0.022917 0.238333 0.063750
0.022917 0.238333 0.063750
0.022917 0.238333 0.063750
0.033958 0.239167 0.064375
0.067083 0.241667 0.066250
0.100208 0.244167 0.068125
0.133333 0.246667 0.070000
0.166458 0.249167 0.071875
0.199583 0.251667 0.073750
0.232708 0.254167 0.075625
0.265833 0.256667 0.077500
0.298958 0.259167 0.079375
0.332083 0.261667 0.081250
0.365208 0.264167 0.083125
0.398333 0.266667 0.085000
0.431458 0.269167 0.086875
0.464583 0.271667 0.088750
0.497708 0.274167 0.090625
0.530833 0.276667 0.092500
0.563958 0.279167 0.094375
0.597083 0.281667 0.096250
0.630208 0.284167 0.098125
0.663333 0.286667 0.100000
0.696458 0.289167 0.101875
0.729583 0.291667 0.103750
0.762708 0.294167 0.105625
0.795833 0.296667 0.107500
0.828958 0.299167 0.109375
0.862083 0.301667 0.111250
0.895208 0.304167 0.113125
0.906250 0.305000 0.113750
0.906250 0.305000 0.113750
0.906250 0.305000 0.113750
0.026042 0.270833 0.065625
0.026042 0.270833 0.065625
0.026042 0.270833 0.065625
0.037083 0.271667 0.066250
0.070208 0.274167 0.068125
0.103333 0.276667 0.070000
0.136458 0.279167 0.071875
0.169583 0.281667 0.073750
0.202708 0.284167 0.075625
0.235833 0.286667 0.077500
0.268958 0.289167 0.079375
0.302083 0.291667 0.081250
0.335208 0.294167 0.083125
0.368333 0.296667 0.085000
0.401458 0.299167 0.086875
0.434583 0.301667 0.088750
0.467708 0.304167 0.090625
0.500833 0.306667 0.092500
0.533958 0.309167 0.094375
0.567083 0.311667 0.096250
0.600208 0.314167 0.098125
0.633333 0.316667 0.100000
0.666458 0.319167 0.101875
0.699583 0.321667 0.103750
0.732708 0.324167 0.105625
0.765833 0.326667 0.107500
0.798958 0.329167 0.109375
0.832083 0.331667 0.111250
0.865208 0.334167 0.113125
0.898333 0.336667 0.115000
0.909375 0.337500 0.115625
0.909375 0.337500 0.115625
0.909375 0.337500 0.115625
0.029167 0.303333 0.067500
0.029167 0.303333 0.067500
0.029167 0.303333 0.067500
0.040208 0.304167 0.068125
0.073333 0.306667 0.070000
0.106458 0.309167 0.071875
0.139583 0.311667 0.073750
0.172708 0.314167 0.075625
0.205833 0.316667 0.077500
0.238958 0.319167 0.079375
0.272083 0.321667 0.081250
0.305208 0.324167 0.083125
0.338333 0.326667 0.085000
0.371458 0.329167 0.086875
0.404583 0.331667 0.088750
0.437708 0.334167 0.090625
0.470833 0.336667 0.092500
0.503958 0.339167 0.094375
0.537083 0.341667 0.096250
0.570208 0.344167 0.098125
0.603333 0.346667 0.100000
0.636458 0.349167 0.101875
0.669583 0.351667 0.103750
0.702708 0.354167 0.105625
0.735833 0.356667 0.107500
0.768958 0.359167 0.109375
0.802083 0.361667 0.111250
0.835208 0.364167 0.113125
0.868333 0.366667 0.115000
0.901458 0.369167 0.116875
0.912500 0.370000 0.117500
0.912500 0.370000 0.117500
0.912500 0.370000 0.117500
0.032292 0.335833 0.069375
0.032292 0.335833 0.069375
0.032292 0.335833 0.069375
0.043333 0.336667 0.070000
0.076458 0.339167 0.071875
0.109583 0.341667 0.073750
0.142708 0.344167 0.075625
0.175833 0.346667 0.077500
0.208958 0.349167 0.079375
0.242083 0.351667 0.081250
0.275208 0.354167 0.083125
0.308333 0.356667 0.085000
0.341458 0.359167 0.086875
0.374583 0.361667 0.088750
0.407708 0.364167 0.090625
0.440833 0.366667 0.092500
0.473958 0.369167 0.094375
0.507083 0.371667 0.096250
0.540208 0.374167 0.098125
0.573333 0.376667 0.100000
0.606458 0.379167 0.101875
0.639583 0.381667 0.103750
0.672708 0.384167 0.105625
0.705833 0.386667 0.107500
0.738958 0.389167 0.109375
0.772083 0.391667 0.111250
0.805208 0.394167 0.113125
0.838333 0.396667 0.115000
0.871458 0.399167 0.116875
0.904583 0.401667 0.118750
0.915625 0.402500 0.119375
0.915625 0.402500 0.119375
0.915625 0.402500 0.119375
0.035417 0.368333 0.071250
0.035417 0.368333 0.071250
0.035417 0.368333 0.071250
0.046458 0.369167 0.071875
0.079583 0.371667 0.073750
0.112708 0.374167 0.075625
0.145833 0.376667 0.077500
0.178958 0.379167 0.079375
0.212083 0.381667 0.081250
0.245208 0.384167 0.083125
0.278333 0.386667 0.085000
0.311458 0.389167 0.086875
0.344583 0.391667 0.088750
0.377708 0.394167 0.090625
0.410833 0.396667 0.092500
0.443958 0.399167 0.094375
0.477083 0.401667 0.096250
0.510208 0.404167 0.098125
0.543333 0.406667 0.100000
0.576458 0.409167 0.101875
0.609583 0.411667 0.103750
0.642708 0.414167 0.105625
0.675833 0.416667 0.107500
0.708958 0.419167 0.109375
0.742083 0.421667 0.111250
0.775208 0.424167 0.113125
0.808333 0.426667 0.115000
0.841458 0.429167 0.116875
0.874583 0.431667 0.118750
0.907708 0.434167 0.120625
0.918750 0.435000 0.121250
0.918750 0.435000 0.121250
0.918750 0.435000 0.121250
0.038542 0.400833 0.073125
0.038542 0.400833 0.073125
0.038542 0.400833 0.073125
0.049583 0.401667 0.073750
0.082708 0.404167 0.075625
0.115833 0.406667 0.077500
0.148958 0.409167 0.079375
0.182083 0.411667 0.081250
0.215208 0.414167 0.083125
0.248333 0.416667 0.085000
0.281458 0.419167 0.086875
0.314583 0.421667 0.088750
0.347708 0.424167 0.090625
0.380833 0.426667 0.092500
0.413958 0.429167 0.094375
0.447083 0.431667 0.096250
0.480208 0.434167 0.098125
0.513333 0.436667 0.100000
0.546458 0.439167 0.101875
0.579583 0.441667 0.103750
0.612708 0.444167 0.105625
0.645833 0.446667 0.107500
0.678958 0.449167 0.109375
0.712083 0.451667 0.111250
0.745208 0.454167 0.113125
0.778333 0.456667 0.115000
0.811458 0.459167 0.116875
0.844583 0.461667 0.118750
0.877708 0.464167 0.120625
0.910833 0.466667 0.122500
0.921875 0.467500 0.123125
0.921875 0.467500 0.123125
0.921875 0.467500 0.123125
0.041667 0.433333 0.075000
0.041667 0.433333 0.075000
0.041667 0.433333 0.075000
0.052708 0.434167 0.075625
0.085833 0.436667 0.077500
0.118958 0.439167 0.079375
0.152083 0.441667 0.081250
0.185208 0.444167 0.083125
0.218333 0.446667 0.085000
0.251458 0.449167 0.086875
0.284583 0.451667 0.088750
0.317708 0.454167 0.090625
0.350833 0.456667 0.092500
0.383958 0.459167 0.094375
0.417083 0.461667 0.096250
0.450208 0.464167 0.098125
0.483333 0.466667 0.100000
0.516458 0.469167 0.101875
0.549583 0.471667 0.103750
0.582708 0.474167 0.105625
0.615833 0.476667 0.107500
0.648958 0.479167 0.109375
0.682083 0.481667 0.111250
0.715208 0.484167 0.113125
0.748333 0.486667 0.115000
0.781458 0.489167 0.116875
0.814583 0.491667 0.118750
0.847708 0.494167 0.120625
0.880833 0.496667 0.122500
0.913958 0.499167 0.124375
0.925000 0.500000 0.125000
0.925000 0.500000 0.125000
0.925000 0.500000 0.125000
0.044792 0.465833 0.076875
0.044792 0.465833 0.076875
0.044792 0.465833 0.076875
0.055833 0.466667 0.077500
0.088958 0.469167 0.079375
0.122083 0.471667 0.081250
0.155208 0.474167 0.083125
0.188333 0.476667 0.085000
0.221458 0.479167 0.086875
0.254583 0.481667 0.088750
0.287708 0.484167 0.090625
0.320833 0.486667 0.092500
0.353958 0.489167 0.094375
0.387083 0.491667 0.096250
0.420208 0.494167 0.098125
0.453333 0.496667 0.100000
0.486458 0.499167 0.101875
0.519583 0.501667 0.103750
0.552708 0.504167 0.105625
0.585833 0.506667 0.107500
0.618958 0.509167 0.109375
0.652083 0.511667 0.111250
0.685208 0.514167 0.113125
0.718333 0.516667 0.115000
0.751458 0.519167 0.116875
0.784583 0.521667 0.118750
0.817708 0.524167 0.120625
0.850833 0.526667 0.122500
0.883958 0.529167 0.124375
0.917083 0.531667 0.126250
0.928125 0.532500 0.126875
0.928125 0.532500 0.126875
0.928125 0.532500 0.126875
0.047917 0.498333 0.078750
0.047917 0.498333 0.078750
0.047917 0.498333 0.078750
0.058958 0.499167 0.079375
0.092083 0.501667 0.081250
0.125208 0.504167 0.083125
0.158333 0.506667 0.085000
0.191458 0.509167 0.086875
0.224583 0.511667 0.088750
0.257708 0.514167 0.090625
0.290833 0.516667 0.092500
0.323958 0.519167 0.094375
0.357083 0.521667 0.096250
0.390208 0.524167 0.098125
0.423333 0.526667 0.100000
0.456458 0.529167 0.101875
0.489583 0.531667 0.103750
0.522708 0.534167 0.105625
0.555833 0.536667 0.107500
0.588958 0.539167 0.109375
0.622083 0.541667 0.111250
0.655208 0.544167 0.113125
0.688333 0.546667 0.115000
0.721458 0.549167 0.116875
0.754583 0.551667 0.118750
0.787708 0.554167 0.120625
0.820833 0.556667 0.122500
0.853958 0.559167 0.124375
0.887083 0.561667 0.126250
0.920208 0.564167 0.128125
0.931250 0.565000 0.128750
0.931250 0.565000 0.128750
0.931250 0.565000 0.128750
0.051042 0.530833 0.080625
0.051042 0.530833 0.080625
0.051042 0.530833 0.080625
0.062083 0.531667 0.081250
0.095208 0.534167 0.083125
0.128333 0.536667 0.085000
0.161458 0.539167 0.086875
0.194583 0.541667 0.088750
0.227708 0.544167 0.090625
0.260833 0.546667 0.092500
0.293958 0.549167 0.094375
0.327083 0.551667 0.096250
0.360208 0.554167 0.098125
0.393333 0.556667 0.100000
0.426458 0.559167 0.101875
0.459583 0.561667 0.103750
0.492708 0.564167 0.105625
0.525833 0.566667 0.107500
0.558958 0.569167 0.109375
0.592083 0.571667 0.111250
0.625208 0.574167 0.113125
0.658333 0.576667 0.115000
0.691458 0.579167 0.116875
0.724583 0.581667 0.118750
0.757708 0.584167 0.120625
0.790833 0.586667 0.122500
0.823958 0.589167 0.124375
0.857083 0.591667 0.126250
0.890208 0.594167 0.128125
0.923333 0.596667 0.130000
0.934375 0.597500 0.130625
0.934375 0.597500 0.130625
0.934375 0.597500 0.130625
0.054167 0.563333 0.082500
0.054167 0.563333 0.082500
0.054167 0.563333 0.082500
0.065208 0.564167 0.083125
0.098333 0.566667 0.085000
0.131458 0.569167 0.086875
0.164583 0.571667 0.088750
0.197708 0.574167 0.090625
0.230833 0.576667 0.092500
0.263958 0.579167 0.094375
0.297083 0.581667 0.096250
0.330208 0.584167 0.098125
0.363333 0.586667 0.100000
0.396458 0.589167 0.101875
0.429583 0.591667 0.103750
0.462708 0.594167 0.105625
0.495833 0.596667 0.107500
0.528958 0.599167 0.109375
0.562083 0.601667 0.111250
0.595208 0.604167 0.113125
0.628333 0.606667 0.115000
0.661458 0.609167 0.116875
0.694583 0.611667 0.118750
0.727708 0.614167 0.120625
0.760833 0.616667 0.122500
0.793958 0.619167 0.124375
0.827083 0.621667 0.126250
0.860208 0.624167 0.128125
0.893333 0.626667 0.130000
0.926458 0.629167 0.131875
0.937500 0.630000 0.132500
0.937500 0.630000 0.132500
0.937500 0.630000 0.132500
0.057292 0.595833 0.084375
0.057292 0.595833 0.084375
0.057292 0.595833 0.084375
0.068333 0.596667 0.085000
0.101458 0.599167 0.086875
0.134583 0.601667 0.088750
0.167708 0.604167 0.090625
0.200833 0.606667 0.092500
0.233958 0.609167 0.094375
0.267083 0.611667 0.096250
0.300208 0.614167 0.098125
0.333333 0.616667 0.100000
0.366458 0.619167 0.101875
0.399583 0.621667 0.103750
0.432708 0.624167 0.105625
0.465833 0.626667 0.107500
0.498958 0.629167 0.109375
0.532083 0.631667 0.111250
0.565208 0.634167 0.113125
0.598333 0.636667 0.115000
0.631458 0.639167 0.116875
0.664583 0.641667 0.118750
0.697708 0.644167 0.120625
0.730833 0.646667 0.122500
0.763958 0.649167 0.124375
0.797083 0.651667 0.126250
0.830208 0.654167 0.128125
0.863333 0.656667 0.130000
0.896458 0.659167 0.131875
0.929583 0.661667 0.133750
0.940625 0.662500 0.134375
0.940625 0.662500 0.134375
0.940625 0.662500 0.134375
0.060417 0.628333 0.086250
0.060417 0.628333 0.086250
0.060417 0.628333 0.086250
0.071458 0.629167 0.086875
0.104583 0.631667 0.088750
0.137708 0.634167 0.090625
0.170833 0.636667 0.092500
0.203958 0.639167 0.094375
0.237083 0.641667 0.096250
0.270208 0.644167 0.098125
0.303333 0.646667 0.100000
0.336458 0.649167 0.101875
0.369583 0.651667 0.103750
0.402708 0.654167 0.105625
0.435833 0.656667 0.107500
0.468958 0.659167 0.109375
0.502083 0.661667 0.111250
0.535208 0.664167 0.113125
0.568333 0.666667 0.115000
0.601458 0.669167 0.116875
0.634583 0.671667 0.118750
0.667708 0.674167 0.120625
0.700833 0.676667 0.122500
0.733958 0.679167 0.124375
0.767083 0.681667 0.126250
0.800208 0.684167 0.128125
0.833333 0.686667 0.130000
0.866458 0.689167 0.131875
0.899583 0.691667 0.133750
0.932708 0.694167 0.135625
0.943750 0.695000 0.136250
0.943750 0.695000 0.136250
0.943750 0.695000 0.136250
0.063542 0.660833 0.088125
0.063542 0.660833 0.088125
0.063542 0.660833 0.088125
0.074583 0.661667 0.088750
0.107708 0.664167 0.090625
0.140833 0.666667 0.092500
0.173958 0.669167 0.094375
0.207083 0.671667 0.096250
0.240208 0.674167 0.098125
0.273333 0.676667 0.100000
0.306458 0.679167 0.101875
0.339583 0.681667 0.103750
0.372708 0.684167 0.105625
0.405833 0.686667 0.107500
0.438958 0.689167 0.109375
0.472083 0.691667 0.111250
0.505208 0.694167 0.113125
0.538333 0.696667 0.115000
0.571458 0.699167 0.116875
0.604583 0.701667 0.118750
0.637708 0.704167 0.120625
0.670833 0.706667 0.122500
0.703958 0.709167 0.124375
0.737083 0.711667 0.126250
0.770208 0.714167 0.128125
0.803333 0.716667 0.130000
0.836458 0.719167 0.131875
0.869583 0.721667 0.133750
0.902708 0.724167 0.135625
0.935833 0.726667 0.137500
0.946875 0.727500 0.138125
0.946875 0.727500 0.138125
0.946875 0.727500 0.138125
0.066667 0.693333 0.090000
0.066667 0.693333 0.090000
0.066667 0.693333 0.090000
0.077708 0.694167 0.090625
0.110833 0.696667 0.092500
0.143958 0.699167 0.094375
0.177083 0.701667 0.096250
0.210208 0.704167 0.098125
0.243333 0.706667 0.100000
0.276458 0.709167 0.101875
0.309583 0.711667 0.103750
0.342708 0.714167 0.105625
0.375833 0.716667 0.107500
0.408958 0.719167 0.109375
0.442083 0.721667 0.111250
0.475208 0.724167 0.113125
0.508333 0.726667 0.115000
0.541458 0.729167 0.116875
0.574583 0.731667 0.118750
0.607708 0.734167 0.120625
0.640833 0.736667 0.122500
0.673958 0.739167 0.124375
0.707083 0.741667 0.126250
0.740208 0.744167 0.128125
0.773333 0.746667 0.130000
0.806458 0.749167 0.131875
0.839583 0.751667 0.133750
0.872708 0.754167 0.135625
0.905833 0.756667 0.137500
0.938958 0.759167 0.139375
0.950000 0.760000 0.140000
0.950000 0.760000 0.140000
0.950000 0.760000 0.140000
0.069792 0.725833 0.091875
0.069792 0.725833 0.091875
0.069792 0.725833 0.091875
0.080833 0.726667 0.092500
0.113958 0.729167 0.094375
0.147083 0.731667 0.096250
0.180208 0.734167 0.098125
0.213333 0.736667 0.100000
0.246458 0.739167 0.101875
0.279583 0.741667 0.103750
0.312708 0.744167 0.105625
0.345833 0.746667 0.107500
0.378958 0.749167 0.109375
0.412083 0.751667 0.111250
0.445208 0.754167 0.113125
0.478333 0.756667 0.115000
0.511458 0.759167 0.116875
0.544583 0.761667 0.118750
0.577708 0.764167 0.120625
0.610833 0.766667 0.122500
0.643958 0.769167 0.124375
0.677083 0.771667 0.126250
0.710208 0.774167 0.128125
0.743333 0.776667 0.130000
0.776458 0.779167 0.131875
0.809583 0.781667 0.133750
0.842708 0.784167 0.135625
0.875833 0.786667 0.137500
0.908958 0.789167 0.139375
0.942083 0.791667 0.141250
0.953125 0.792500 0.141875
0.953125 0.792500 0.141875
0.953125 0.792500 0.141875
0.072917 0.758333 0.093750
0.072917 0.758333 0.093750
0.072917 0.758333 0.093750
0.083958 0.759167 0.094375
0.117083 0.761667 0.096250
0.150208 0.764167 0.098125
0.183333 0.766667 0.100000
0.216458 0.769167 0.101875
0.249583 0.771667 0.103750
0.282708 0.774167 0.105625
0.315833 0.776667 0.107500
0.348958 0.779167 0.109375
0.382083 0.781667 0.111250
0.415208 0.784167 0.113125
0.448333 0.786667 0.115000
0.481458 0.789167 0.116875
0.514583 0.791667 0.118750
0.547708 0.794167 0.120625
0.580833 0.796667 0.122500
0.613958 0.799167 0.124375
0.647083 0.801667 0.126250
0.680208 0.804167 0.128125
0.713333 0.806667 0.130000
0.746458 0.809167 0.131875
0.779583 0.811667 0.133750
0.812708 0.814167 0.135625
0.845833 0.816667 0.137500
0.878958 0.819167 0.139375
0.912083 0.821667 0.141250
0.945208 0.824167 0.143125
