Luts/teal_orange_grade-chatgpt.cube
LUT_3D_SIZE 5
0.000000 0.020000 0.050000
0.315892 0.030051 0.035641
0.589475 0.038756 0.023206
0.849078 0.047016 0.011406
1.100000 0.055000 0.000000
0.000000 0.307175 0.050000
0.315892 0.317226 0.035641
0.589475 0.325931 0.023206
0.849078 0.334191 0.011406
1.100000 0.342175 0.000000
0.000000 0.555887 0.050000
0.315892 0.565938 0.035641
0.589475 0.574643 0.023206
0.849078 0.582903 0.011406
1.100000 0.590887 0.000000
0.000000 0.791890 0.050000
0.315892 0.801941 0.035641
0.589475 0.810646 0.023206
0.849078 0.818906 0.011406
1.100000 0.826890 0.000000
0.000000 1.020000 0.050000
0.315892 1.030051 0.035641
0.589475 1.038756 0.023206
0.849078 1.047016 0.011406
1.100000 1.055000 0.000000
0.000000 0.020000 0.337175
0.315892 0.030051 0.322816
0.589475 0.038756 0.310380
0.849078 0.047016 0.298580
1.100000 0.055000 0.287175
0.000000 0.307175 0.337175
0.315892 0.317226 0.322816
0.589475 0.325931 0.310380
0.849078 0.334191 0.298580
1.100000 0.342175 0.287175
0.000000 0.555887 0.337175
0.315892 0.565938 0.322816
0.589475 0.574643 0.310380
0.849078 0.582903 0.298580
1.100000 0.590887 0.287175
0.000000 0.791890 0.337175
0.315892 0.801941 0.322816
0.589475 0.810646 0.310380
0.849078 0.818906 0.298580
1.100000 0.826890 0.287175
0.000000 1.020000 0.337175
0.315892 1.030051 0.322816
0.589475 1.038756 0.310380
0.849078 1.047016 0.298580
1.100000 1.055000 0.287175
0.000000 0.020000 0.585887
0.315892 0.030051 0.571528
0.589475 0.038756 0.559092
0.849078 0.047016 0.547292
1.100000 0.055000 0.535887
0.000000 0.307175 0.585887
0.315892 0.317226 0.571528
0.589475 0.325931 0.559092
0.849078 0.334191 0.547292
1.100000 0.342175 0.535887
0.000000 0.555887 0.585887
0.315892 0.565938 0.571528
0.589475 0.574643 0.559092
0.849078 0.582903 0.547292
1.100000 0.590887 0.535887
0.000000 0.791890 0.585887
0.315892 0.801941 0.571528
0.589475 0.810646 0.559092
0.849078 0.818906 0.547292
1.100000 0.826890 0.535887
0.000000 1.020000 0.585887
0.315892 1.030051 0.571528
0.589475 1.038756 0.559092
0.849078 1.047016 0.547292
1.100000 1.055000 0.535887
0.000000 0.020000 0.821890
0.315892 0.030051 0.807531
0.589475 0.038756 0.795095
0.849078 0.047016 0.783295
1.100000 0.055000 0.771890
0.000000 0.307175 0.821890
0.315892 0.317226 0.807531
0.589475 0.325931 0.795095
0.849078 0.334191 0.783295
1.100000 0.342175 0.771890
0.000000 0.555887 0.821890
0.315892 0.565938 0.807531
0.589475 0.574643 0.795095
0.849078 0.582903 0.783295
1.100000 0.590887 0.771890
0.000000 0.791890 0.821890
0.315892 0.801941 0.807531
0.589475 0.810646 0.795095
0.849078 0.818906 0.783295
1.100000 0.826890 0.771890
0.000000 1.020000 0.821890
0.315892 1.030051 0.807531
0.589475 1.038756 0.795095
0.849078 1.047016 0.783295
1.100000 1.055000 0.771890
0.000000 0.020000 1.050000
0.315892 0.030051 1.035641
0.589475 0.038756 1.023206
0.849078 0.047016 1.011406
1.100000 0.055000 1.000000
0.000000 0.307175 1.050000
0.315892 0.317226 1.035641
0.589475 0.325931 1.023206
0.849078 0.334191 1.011406
1.100000 0.342175 1.000000
0.000000 0.555887 1.050000
0.315892 0.565938 1.035641
0.589475 0.574643 1.023206
0.849078 0.582903 1.011406
1.100000 0.590887 1.000000
0.000000 0.791890 1.050000
0.315892 0.801941 1.035641
0.589475 0.810646 1.023206
0.849078 0.818906 1.011406
1.100000 0.826890 1.000000
0.000000 1.020000 1.050000
0.315892 1.030051 1.035641
0.589475 1.038756 1.023206
0.849078 1.047016 1.011406
1.100000 1.055000 1.000000
