Luts/teal_orange_grade-chatgpt.cube
LUT_3D_SIZE 9
0.000000 0.020000 0.050000
0.169282 0.025386 0.042305
0.315892 0.030051 0.035641
0.455010 0.034478 0.029318
0.589475 0.038756 0.023206
0.720584 0.042928 0.017246
0.849078 0.047016 0.011406
0.975439 0.051037 0.005662
1.100000 0.055000 0.000000
0.000000 0.173893 0.050000
0.169282 0.179279 0.042305
0.315892 0.183944 0.035641
0.455010 0.188371 0.029318
0.589475 0.192649 0.023206
0.720584 0.196821 0.017246
0.849078 0.200909 0.011406
0.975439 0.204930 0.005662
1.100000 0.208893 0.000000
0.000000 0.307175 0.050000
0.169282 0.312561 0.042305
0.315892 0.317226 0.035641
0.455010 0.321652 0.029318
0.589475 0.325931 0.023206
0.720584 0.330102 0.017246
0.849078 0.334191 0.011406
0.975439 0.338211 0.005662
1.100000 0.342175 0.000000
0.000000 0.433645 0.050000
0.169282 0.439032 0.042305
0.315892 0.443696 0.035641
0.455010 0.448123 0.029318
0.589475 0.452401 0.023206
0.720584 0.456573 0.017246
0.849078 0.460661 0.011406
0.975439 0.464682 0.005662
1.100000 0.468645 0.000000
0.000000 0.555887 0.050000
0.169282 0.561273 0.042305
0.315892 0.565938 0.035641
0.455010 0.570364 0.029318
0.589475 0.574643 0.023206
0.720584 0.578814 0.017246
0.849078 0.582903 0.011406
0.975439 0.586923 0.005662
1.100000 0.590887 0.000000
0.000000 0.675076 0.050000
0.169282 0.680463 0.042305
0.315892 0.685128 0.035641
0.455010 0.689554 0.029318
0.589475 0.693833 0.023206
0.720584 0.698004 0.017246
0.849078 0.702093 0.011406
0.975439 0.706113 0.005662
1.100000 0.710076 0.000000
0.000000 0.791890 0.050000
0.169282 0.797276 0.042305
0.315892 0.801941 0.035641
0.455010 0.806367 0.029318
0.589475 0.810646 0.023206
0.720584 0.814817 0.017246
0.849078 0.818906 0.011406
0.975439 0.822926 0.005662
1.100000 0.826890 0.000000
0.000000 0.906762 0.050000
0.169282 0.912149 0.042305
0.315892 0.916813 0.035641
0.455010 0.921240 0.029318
0.589475 0.925518 0.023206
0.720584 0.929690 0.017246
0.849078 0.933778 0.011406
0.975439 0.937799 0.005662
1.100000 0.941762 0.000000
0.000000 1.020000 0.050000
0.169282 1.025386 0.042305
0.315892 1.030051 0.035641
0.455010 1.034478 0.029318
0.589475 1.038756 0.023206
0.720584 1.042928 0.017246
0.849078 1.047016 0.011406
0.975439 1.051037 0.005662
1.100000 1.055000 0.000000
0.000000 0.020000 0.203893
0.169282 0.025386 0.196198
0.315892 0.030051 0.189534
0.455010 0.034478 0.183211
0.589475 0.038756 0.177099
0.720584 0.042928 0.171139
0.849078 0.047016 0.165299
0.975439 0.051037 0.159555
1.100000 0.055000 0.153893
0.000000 0.173893 0.203893
0.169282 0.179279 0.196198
0.315892 0.183944 0.189534
0.455010 0.188371 0.183211
0.589475 0.192649 0.177099
0.720584 0.196821 0.171139
0.849078 0.200909 0.165299
0.975439 0.204930 0.159555
1.100000 0.208893 0.153893
0.000000 0.307175 0.203893
0.169282 0.312561 0.196198
0.315892 0.317226 0.189534
0.455010 0.321652 0.183211
0.589475 0.325931 0.177099
0.720584 0.330102 0.171139
0.849078 0.334191 0.165299
0.975439 0.338211 0.159555
1.100000 0.342175 0.153893
0.000000 0.433645 0.203893
0.169282 0.439032 0.196198
0.315892 0.443696 0.189534
0.455010 0.448123 0.183211
0.589475 0.452401 0.177099
0.720584 0.456573 0.171139
0.849078 0.460661 0.165299
0.975439 0.464682 0.159555
1.100000 0.468645 0.153893
0.000000 0.555887 0.203893
0.169282 0.561273 0.196198
0.315892 0.565938 0.189534
0.455010 0.570364 0.183211
0.589475 0.574643 0.177099
0.720584 0.578814 0.171139
0.849078 0.582903 0.165299
0.975439 0.586923 0.159555
1.100000 0.590887 0.153893
0.000000 0.675076 0.203893
0.169282 0.680463 0.196198
0.315892 0.685128 0.189534
0.455010 0.689554 0.183211
0.589475 0.693833 0.177099
0.720584 0.698004 0.171139
0.849078 0.702093 0.165299
0.975439 0.706113 0.159555
1.100000 0.710076 0.153893
0.000000 0.791890 0.203893
0.169282 0.797276 0.196198
0.315892 0.801941 0.189534
0.455010 0.806367 0.183211
0.589475 0.810646 0.177099
0.720584 0.814817 0.171139
0.849078 0.818906 0.165299
0.975439 0.822926 0.159555
1.100000 0.826890 0.153893
0.000000 0.906762 0.203893
0.169282 0.912149 0.196198
0.315892 0.916813 0.189534
0.455010 0.921240 0.183211
0.589475 0.925518 0.177099
0.720584 0.929690 0.171139
0.849078 0.933778 0.165299
0.975439 0.937799 0.159555
1.100000 0.941762 0.153893
0.000000 1.020000 0.203893
0.169282 1.025386 0.196198
0.315892 1.030051 0.189534
0.455010 1.034478 0.183211
0.589475 1.038756 0.177099
0.720584 1.042928 0.171139
0.849078 1.047016 0.165299
0.975439 1.051037 0.159555
1.100000 1.055000 0.153893
0.000000 0.020000 0.337175
0.169282 0.025386 0.329480
0.315892 0.030051 0.322816
0.455010 0.034478 0.316492
0.589475 0.038756 0.310380
0.720584 0.042928 0.304421
0.849078 0.047016 0.298580
0.975439 0.051037 0.292836
1.100000 0.055000 0.287175
0.000000 0.173893 0.337175
0.169282 0.179279 0.329480
0.315892 0.183944 0.322816
0.455010 0.188371 0.316492
0.589475 0.192649 0.310380
0.720584 0.196821 0.304421
0.849078 0.200909 0.298580
0.975439 0.204930 0.292836
1.100000 0.208893 0.287175
0.000000 0.307175 0.337175
0.169282 0.312561 0.329480
0.315892 0.317226 0.322816
0.455010 0.321652 0.316492
0.589475 0.325931 0.310380
0.720584 0.330102 0.304421
0.849078 0.334191 0.298580
0.975439 0.338211 0.292836
1.100000 0.342175 0.287175
0.000000 0.433645 0.337175
0.169282 0.439032 0.329480
0.315892 0.443696 0.322816
0.455010 0.448123 0.316492
0.589475 0.452401 0.310380
0.720584 0.456573 0.304421
0.849078 0.460661 0.298580
0.975439 0.464682 0.292836
1.100000 0.468645 0.287175
0.000000 0.555887 0.337175
0.169282 0.561273 0.329480
0.315892 0.565938 0.322816
0.455010 0.570364 0.316492
0.589475 0.574643 0.310380
0.720584 0.578814 0.304421
0.849078 0.582903 0.298580
0.975439 0.586923 0.292836
1.100000 0.590887 0.287175
0.000000 0.675076 0.337175
0.169282 0.680463 0.329480
0.315892 0.685128 0.322816
0.455010 0.689554 0.316492
0.589475 0.693833 0.310380
0.720584 0.698004 0.304421
0.849078 0.702093 0.298580
0.975439 0.706113 0.292836
1.100000 0.710076 0.287175
0.000000 0.791890 0.337175
0.169282 0.797276 0.329480
0.315892 0.801941 0.322816
0.455010 0.806367 0.316492
0.589475 0.810646 0.310380
0.720584 0.814817 0.304421
0.849078 0.818906 0.298580
0.975439 0.822926 0.292836
1.100000 0.826890 0.287175
0.000000 0.906762 0.337175
0.169282 0.912149 0.329480
0.315892 0.916813 0.322816
0.455010 0.921240 0.316492
0.589475 0.925518 0.310380
0.720584 0.929690 0.304421
0.849078 0.933778 0.298580
0.975439 0.937799 0.292836
1.100000 0.941762 0.287175
0.000000 1.020000 0.337175
0.169282 1.025386 0.329480
0.315892 1.030051 0.322816
0.455010 1.034478 0.316492
0.589475 1.038756 0.310380
0.720584 1.042928 0.304421
0.849078 1.047016 0.298580
0.975439 1.051037 0.292836
1.100000 1.055000 0.287175
0.000000 0.020000 0.463645
0.169282 0.025386 0.455951
0.315892 0.030051 0.449287
0.455010 0.034478 0.442963
0.589475 0.038756 0.436851
0.720584 0.042928 0.430892
0.849078 0.047016 0.425051
0.975439 0.051037 0.419307
1.100000 0.055000 0.413645
0.000000 0.173893 0.463645
0.169282 0.179279 0.455951
0.315892 0.183944 0.449287
0.455010 0.188371 0.442963
0.589475 0.192649 0.436851
0.720584 0.196821 0.430892
0.849078 0.200909 0.425051
0.975439 0.204930 0.419307
1.100000 0.208893 0.413645
0.000000 0.307175 0.463645
0.169282 0.312561 0.455951
0.315892 0.317226 0.449287
0.455010 0.321652 0.442963
0.589475 0.325931 0.436851
0.720584 0.330102 0.430892
0.849078 0.334191 0.425051
0.975439 0.338211 0.419307
1.100000 0.342175 0.413645
0.000000 0.433645 0.463645
0.169282 0.439032 0.455951
0.315892 0.443696 0.449287
0.455010 0.448123 0.442963
0.589475 0.452401 0.436851
0.720584 0.456573 0.430892
0.849078 0.460661 0.425051
0.975439 0.464682 0.419307
1.100000 0.468645 0.413645
0.000000 0.555887 0.463645
0.169282 0.561273 0.455951
0.315892 0.565938 0.449287
0.455010 0.570364 0.442963
0.589475 0.574643 0.436851
0.720584 0.578814 0.430892
0.849078 0.582903 0.425051
0.975439 0.586923 0.419307
1.100000 0.590887 0.413645
0.000000 0.675076 0.463645
0.169282 0.680463 0.455951
0.315892 0.685128 0.449287
0.455010 0.689554 0.442963
0.589475 0.693833 0.436851
0.720584 0.698004 0.430892
0.849078 0.702093 0.425051
0.975439 0.706113 0.419307
1.100000 0.710076 0.413645
0.000000 0.791890 0.463645
0.169282 0.797276 0.455951
0.315892 0.801941 0.449287
0.455010 0.806367 0.442963
0.589475 0.810646 0.436851
0.720584 0.814817 0.430892
0.849078 0.818906 0.425051
0.975439 0.822926 0.419307
1.100000 0.826890 0.413645
0.000000 0.906762 0.463645
0.169282 0.912149 0.455951
0.315892 0.916813 0.449287
0.455010 0.921240 0.442963
0.589475 0.925518 0.436851
0.720584 0.929690 0.430892
0.849078 0.933778 0.425051
0.975439 0.937799 0.419307
1.100000 0.941762 0.413645
0.000000 1.020000 0.463645
0.169282 1.025386 0.455951
0.315892 1.030051 0.449287
0.455010 1.034478 0.442963
0.589475 1.038756 0.436851
0.720584 1.042928 0.430892
0.849078 1.047016 0.425051
0.975439 1.051037 0.419307
1.100000 1.055000 0.413645
0.000000 0.020000 0.585887
0.169282 0.025386 0.578192
0.315892 0.030051 0.571528
0.455010 0.034478 0.565204
0.589475 0.038756 0.559092
0.720584 0.042928 0.553133
0.849078 0.047016 0.547292
0.975439 0.051037 0.541549
1.100000 0.055000 0.535887
0.000000 0.173893 0.585887
0.169282 0.179279 0.578192
0.315892 0.183944 0.571528
0.455010 0.188371 0.565204
0.589475 0.192649 0.559092
0.720584 0.196821 0.553133
0.849078 0.200909 0.547292
0.975439 0.204930 0.541549
1.100000 0.208893 0.535887
0.000000 0.307175 0.585887
0.169282 0.312561 0.578192
0.315892 0.317226 0.571528
0.455010 0.321652 0.565204
0.589475 0.325931 0.559092
0.720584 0.330102 0.553133
0.849078 0.334191 0.547292
0.975439 0.338211 0.541549
1.100000 0.342175 0.535887
0.000000 0.433645 0.585887
0.169282 0.439032 0.578192
0.315892 0.443696 0.571528
0.455010 0.448123 0.565204
0.589475 0.452401 0.559092
0.720584 0.456573 0.553133
0.849078 0.460661 0.547292
0.975439 0.464682 0.541549
1.100000 0.468645 0.535887
0.000000 0.555887 0.585887
0.169282 0.561273 0.578192
0.315892 0.565938 0.571528
0.455010 0.570364 0.565204
0.589475 0.574643 0.559092
0.720584 0.578814 0.553133
0.849078 0.582903 0.547292
0.975439 0.586923 0.541549
1.100000 0.590887 0.535887
0.000000 0.675076 0.585887
0.169282 0.680463 0.578192
0.315892 0.685128 0.571528
0.455010 0.689554 0.565204
0.589475 0.693833 0.559092
0.720584 0.698004 0.553133
0.849078 0.702093 0.547292
0.975439 0.706113 0.541549
1.100000 0.710076 0.535887
0.000000 0.791890 0.585887
0.169282 0.797276 0.578192
0.315892 0.801941 0.571528
0.455010 0.806367 0.565204
0.589475 0.810646 0.559092
0.720584 0.814817 0.553133
0.849078 0.818906 0.547292
0.975439 0.822926 0.541549
1.100000 0.826890 0.535887
0.000000 0.906762 0.585887
0.169282 0.912149 0.578192
0.315892 0.916813 0.571528
0.455010 0.921240 0.565204
0.589475 0.925518 0.559092
0.720584 0.929690 0.553133
0.849078 0.933778 0.547292
0.975439 0.937799 0.541549
1.100000 0.941762 0.535887
0.000000 1.020000 0.585887
0.169282 1.025386 0.578192
0.315892 1.030051 0.571528
0.455010 1.034478 0.565204
0.589475 1.038756 0.559092
0.720584 1.042928 0.553133
0.849078 1.047016 0.547292
0.975439 1.051037 0.541549
1.100000 1.055000 0.535887
0.000000 0.020000 0.705076
0.169282 0.025386 0.697382
0.315892 0.030051 0.690718
0.455010 0.034478 0.684394
0.589475 0.038756 0.678282
0.720584 0.042928 0.672323
0.849078 0.047016 0.666482
0.975439 0.051037 0.660738
1.100000 0.055000 0.655076
0.000000 0.173893 0.705076
0.169282 0.179279 0.697382
0.315892 0.183944 0.690718
0.455010 0.188371 0.684394
0.589475 0.192649 0.678282
0.720584 0.196821 0.672323
0.849078 0.200909 0.666482
0.975439 0.204930 0.660738
1.100000 0.208893 0.655076
0.000000 0.307175 0.705076
0.169282 0.312561 0.697382
0.315892 0.317226 0.690718
0.455010 0.321652 0.684394
0.589475 0.325931 0.678282
0.720584 0.330102 0.672323
0.849078 0.334191 0.666482
0.975439 0.338211 0.660738
1.100000 0.342175 0.655076
0.000000 0.433645 0.705076
0.169282 0.439032 0.697382
0.315892 0.443696 0.690718
0.455010 0.448123 0.684394
0.589475 0.452401 0.678282
0.720584 0.456573 0.672323
0.849078 0.460661 0.666482
0.975439 0.464682 0.660738
1.100000 0.468645 0.655076
0.000000 0.555887 0.705076
0.169282 0.561273 0.697382
0.315892 0.565938 0.690718
0.455010 0.570364 0.684394
0.589475 0.574643 0.678282
0.720584 0.578814 0.672323
0.849078 0.582903 0.666482
0.975439 0.586923 0.660738
1.100000 0.590887 0.655076
0.000000 0.675076 0.705076
0.169282 0.680463 0.697382
0.315892 0.685128 0.690718
0.455010 0.689554 0.684394
0.589475 0.693833 0.678282
0.720584 0.698004 0.672323
0.849078 0.702093 0.666482
0.975439 0.706113 0.660738
1.100000 0.710076 0.655076
0.000000 0.791890 0.705076
0.169282 0.797276 0.697382
0.315892 0.801941 0.690718
0.455010 0.806367 0.684394
0.589475 0.810646 0.678282
0.720584 0.814817 0.672323
0.849078 0.818906 0.666482
0.975439 0.822926 0.660738
1.100000 0.826890 0.655076
0.000000 0.906762 0.705076
0.169282 0.912149 0.697382
0.315892 0.916813 0.690718
0.455010 0.921240 0.684394
0.589475 0.925518 0.678282
0.720584 0.929690 0.672323
0.849078 0.933778 0.666482
0.975439 0.937799 0.660738
1.100000 0.941762 0.655076
0.000000 1.020000 0.705076
0.169282 1.025386 0.697382
0.315892 1.030051 0.690718
0.455010 1.034478 0.684394
0.589475 1.038756 0.678282
0.720584 1.042928 0.672323
0.849078 1.047016 0.666482
0.975439 1.051037 0.660738
1.100000 1.055000 0.655076
0.000000 0.020000 0.821890
0.169282 0.025386 0.814195
0.315892 0.030051 0.807531
0.455010 0.034478 0.801207
0.589475 0.038756 0.795095
0.720584 0.042928 0.789136
0.849078 0.047016 0.783295
0.975439 0.051037 0.777551
1.100000 0.055000 0.771890
0.000000 0.173893 0.821890
0.169282 0.179279 0.814195
0.315892 0.183944 0.807531
0.455010 0.188371 0.801207
0.589475 0.192649 0.795095
0.720584 0.196821 0.789136
0.849078 0.200909 0.783295
0.975439 0.204930 0.777551
1.100000 0.208893 0.771890
0.000000 0.307175 0.821890
0.169282 0.312561 0.814195
0.315892 0.317226 0.807531
0.455010 0.321652 0.801207
0.589475 0.325931 0.795095
0.720584 0.330102 0.789136
0.849078 0.334191 0.783295
0.975439 0.338211 0.777551
1.100000 0.342175 0.771890
0.000000 0.433645 0.821890
0.169282 0.439032 0.814195
0.315892 0.443696 0.807531
0.455010 0.448123 0.801207
0.589475 0.452401 0.795095
0.720584 0.456573 0.789136
0.849078 0.460661 0.783295
0.975439 0.464682 0.777551
1.100000 0.468645 0.771890
0.000000 0.555887 0.821890
0.169282 0.561273 0.814195
0.315892 0.565938 0.807531
0.455010 0.570364 0.801207
0.589475 0.574643 0.795095
0.720584 0.578814 0.789136
0.849078 0.582903 0.783295
0.975439 0.586923 0.777551
1.100000 0.590887 0.771890
0.000000 0.675076 0.821890
0.169282 0.680463 0.814195
0.315892 0.685128 0.807531
0.455010 0.689554 0.801207
0.589475 0.693833 0.795095
0.720584 0.698004 0.789136
0.849078 0.702093 0.783295
0.975439 0.706113 0.777551
1.100000 0.710076 0.771890
0.000000 0.791890 0.821890
0.169282 0.797276 0.814195
0.315892 0.801941 0.807531
0.455010 0.806367 0.801207
0.589475 0.810646 0.795095
0.720584 0.814817 0.789136
0.849078 0.818906 0.783295
0.975439 0.822926 0.777551
1.100000 0.826890 0.771890
0.000000 0.906762 0.821890
0.169282 0.912149 0.814195
0.315892 0.916813 0.807531
0.455010 0.921240 0.801207
0.589475 0.925518 0.795095
0.720584 0.929690 0.789136
0.849078 0.933778 0.783295
0.975439 0.937799 0.777551
1.100000 0.941762 0.771890
0.000000 1.020000 0.821890
0.169282 1.025386 0.814195
0.315892 1.030051 0.807531
0.455010 1.034478 0.801207
0.589475 1.038756 0.795095
0.720584 1.042928 0.789136
0.849078 1.047016 0.783295
0.975439 1.051037 0.777551
1.100000 1.055000 0.771890
0.000000 0.020000 0.936762
0.169282 0.025386 0.929068
0.315892 0.030051 0.922404
0.455010 0.034478 0.916080
0.589475 0.038756 0.909968
0.720584 0.042928 0.904009
0.849078 0.047016 0.898168
0.975439 0.051037 0.892424
1.100000 0.055000 0.886762
0.000000 0.173893 0.936762
0.169282 0.179279 0.929068
0.315892 0.183944 0.922404
0.455010 0.188371 0.916080
0.589475 0.192649 0.909968
0.720584 0.196821 0.904009
0.849078 0.200909 0.898168
0.975439 0.204930 0.892424
1.100000 0.208893 0.886762
0.000000 0.307175 0.936762
0.169282 0.312561 0.929068
0.315892 0.317226 0.922404
0.455010 0.321652 0.916080
0.589475 0.325931 0.909968
0.720584 0.330102 0.904009
0.849078 0.334191 0.898168
0.975439 0.338211 0.892424
1.100000 0.342175 0.886762
0.000000 0.433645 0.936762
0.169282 0.439032 0.929068
0.315892 0.443696 0.922404
0.455010 0.448123 0.916080
0.589475 0.452401 0.909968
0.720584 0.456573 0.904009
0.849078 0.460661 0.898168
0.975439 0.464682 0.892424
1.100000 0.468645 0.886762
0.000000 0.555887 0.936762
0.169282 0.561273 0.929068
0.315892 0.565938 0.922404
0.455010 0.570364 0.916080
0.589475 0.574643 0.909968
0.720584 0.578814 0.904009
0.849078 0.582903 0.898168
0.975439 0.586923 0.892424
1.100000 0.590887 0.886762
0.000000 0.675076 0.936762
0.169282 0.680463 0.929068
0.315892 0.685128 0.922404
0.455010 0.689554 0.916080
0.589475 0.693833 0.909968
0.720584 0.698004 0.904009
0.849078 0.702093 0.898168
0.975439 0.706113 0.892424
1.100000 0.710076 0.886762
0.000000 0.791890 0.936762
0.169282 0.797276 0.929068
0.315892 0.801941 0.922404
0.455010 0.806367 0.916080
0.589475 0.810646 0.909968
0.720584 0.814817 0.904009
0.849078 0.818906 0.898168
0.975439 0.822926 0.892424
1.100000 0.826890 0.886762
0.000000 0.906762 0.936762
0.169282 0.912149 0.929068
0.315892 0.916813 0.922404
0.455010 0.921240 0.916080
0.589475 0.925518 0.909968
0.720584 0.929690 0.904009
0.849078 0.933778 0.898168
0.975439 0.937799 0.892424
1.100000 0.941762 0.886762
0.000000 1.020000 0.936762
0.169282 1.025386 0.929068
0.315892 1.030051 0.922404
0.455010 1.034478 0.916080
0.589475 1.038756 0.909968
0.720584 1.042928 0.904009
0.849078 1.047016 0.898168
0.975439 1.051037 0.892424
1.100000 1.055000 0.886762
0.000000 0.020000 1.050000
0.169282 0.025386 1.042305
0.315892 0.030051 1.035641
0.455010 0.034478 1.029318
0.589475 0.038756 1.023206
0.720584 0.042928 1.017246
0.849078 0.047016 1.011406
0.975439 0.051037 1.005662
1.100000 0.055000 1.000000
0.000000 0.173893 1.050000
0.169282 0.179279 1.042305
0.315892 0.183944 1.035641
0.455010 0.188371 1.029318
0.589475 0.192649 1.023206
0.720584 0.196821 1.017246
0.849078 0.200909 1.011406
0.975439 0.204930 1.005662
1.100000 0.208893 1.000000
0.000000 0.307175 1.050000
0.169282 0.312561 1.042305
0.315892 0.317226 1.035641
0.455010 0.321652 1.029318
0.589475 0.325931 1.023206
0.720584 0.330102 1.017246
0.849078 0.334191 1.011406
0.975439 0.338211 1.005662
1.100000 0.342175 1.000000
0.000000 0.433645 1.050000
0.169282 0.439032 1.042305
0.315892 0.443696 1.035641
0.455010 0.448123 1.029318
0.589475 0.452401 1.023206
0.720584 0.456573 1.017246
0.849078 0.460661 1.011406
0.975439 0.464682 1.005662
1.100000 0.468645 1.000000
0.000000 0.555887 1.050000
0.169282 0.561273 1.042305
0.315892 0.565938 1.035641
0.455010 0.570364 1.029318
0.589475 0.574643 1.023206
0.720584 0.578814 1.017246
0.849078 0.582903 1.011406
0.975439 0.586923 1.005662
1.100000 0.590887 1.000000
0.000000 0.675076 1.050000
0.169282 0.680463 1.042305
0.315892 0.685128 1.035641
0.455010 0.689554 1.029318
0.589475 0.693833 1.023206
0.720584 0.698004 1.017246
0.849078 0.702093 1.011406
0.975439 0.706113 1.005662
1.100000 0.710076 1.000000
0.000000 0.791890 1.050000
0.169282 0.797276 1.042305
0.315892 0.801941 1.035641
0.455010 0.806367 1.029318
0.589475 0.810646 1.023206
0.720584 0.814817 1.017246
0.849078 0.818906 1.011406
0.975439 0.822926 1.005662
1.100000 0.826890 1.000000
0.000000 0.906762 1.050000
0.169282 0.912149 1.042305
0.315892 0.916813 1.035641
0.455010 0.921240 1.029318
0.589475 0.925518 1.023206
0.720584 0.929690 1.017246
0.849078 0.933778 1.011406
0.975439 0.937799 1.005662
1.100000 0.941762 1.000000
0.000000 1.020000 1.050000
0.169282 1.025386 1.042305
0.315892 1.030051 1.035641
0.455010 1.034478 1.029318
0.589475 1.038756 1.023206
0.720584 1.042928 1.017246
0.849078 1.047016 1.011406
0.975439 1.051037 1.005662
1.100000 1.055000 1.000000
