Luts/teal_orange_grade-chatgpt.cube
LUT_3D_SIZE 33
0.000000 0.020000 0.050000
0.048614 0.021547 0.047790
0.090716 0.022886 0.045877
0.130667 0.024158 0.044061
0.169282 0.025386 0.042305
0.206933 0.026584 0.040594
0.243834 0.027758 0.038917
0.280121 0.028913 0.037267
0.315892 0.030051 0.035641
0.351217 0.031175 0.034036
0.386151 0.032287 0.032448
0.420737 0.033387 0.030876
0.455010 0.034478 0.029318
0.488998 0.035559 0.027773
0.522725 0.036632 0.026240
0.556211 0.037698 0.024718
0.589475 0.038756 0.023206
0.622532 0.039808 0.021703
0.655395 0.040853 0.020209
0.688075 0.041893 0.018724
0.720584 0.042928 0.017246
0.752931 0.043957 0.015776
0.785124 0.044981 0.014313
0.817171 0.046001 0.012856
0.849078 0.047016 0.011406
0.880854 0.048027 0.009961
0.912502 0.049034 0.008523
0.944028 0.050037 0.007090
0.975439 0.051037 0.005662
1.006737 0.052033 0.004239
1.037927 0.053025 0.002821
1.069014 0.054014 0.001408
1.100000 0.055000 0.000000
0.000000 0.064194 0.050000
0.048614 0.065741 0.047790
0.090716 0.067081 0.045877
0.130667 0.068352 0.044061
0.169282 0.069580 0.042305
0.206933 0.070778 0.040594
0.243834 0.071953 0.038917
0.280121 0.073107 0.037267
0.315892 0.074245 0.035641
0.351217 0.075369 0.034036
0.386151 0.076481 0.032448
0.420737 0.077581 0.030876
0.455010 0.078672 0.029318
0.488998 0.079753 0.027773
0.522725 0.080826 0.026240
0.556211 0.081892 0.024718
0.589475 0.082950 0.023206
0.622532 0.084002 0.021703
0.655395 0.085048 0.020209
0.688075 0.086087 0.018724
0.720584 0.087122 0.017246
0.752931 0.088151 0.015776
0.785124 0.089175 0.014313
0.817171 0.090195 0.012856
0.849078 0.091210 0.011406
0.880854 0.092221 0.009961
0.912502 0.093228 0.008523
0.944028 0.094231 0.007090
0.975439 0.095231 0.005662
1.006737 0.096227 0.004239
1.037927 0.097219 0.002821
1.069014 0.098208 0.001408
1.100000 0.099194 0.000000
0.000000 0.102469 0.050000
0.048614 0.104016 0.047790
0.090716 0.105356 0.045877
0.130667 0.106627 0.044061
0.169282 0.107856 0.042305
0.206933 0.109053 0.040594
0.243834 0.110228 0.038917
0.280121 0.111382 0.037267
0.315892 0.112520 0.035641
0.351217 0.113644 0.034036
0.386151 0.114756 0.032448
0.420737 0.115856 0.030876
0.455010 0.116947 0.029318
0.488998 0.118028 0.027773
0.522725 0.119101 0.026240
0.556211 0.120167 0.024718
0.589475 0.121225 0.023206
0.622532 0.122277 0.021703
0.655395 0.123323 0.020209
0.688075 0.124363 0.018724
0.720584 0.125397 0.017246
0.752931 0.126426 0.015776
0.785124 0.127450 0.014313
0.817171 0.128470 0.012856
0.849078 0.129485 0.011406
0.880854 0.130496 0.009961
0.912502 0.131503 0.008523
0.944028 0.132507 0.007090
0.975439 0.133506 0.005662
1.006737 0.134502 0.004239
1.037927 0.135494 0.002821
1.069014 0.136483 0.001408
1.100000 0.137469 0.000000
0.000000 0.138788 0.050000
0.048614 0.140335 0.047790
0.090716 0.141675 0.045877
0.130667 0.142946 0.044061
0.169282 0.144175 0.042305
0.206933 0.145373 0.040594
0.243834 0.146547 0.038917
0.280121 0.147701 0.037267
0.315892 0.148840 0.035641
0.351217 0.149964 0.034036
0.386151 0.151075 0.032448
0.420737 0.152176 0.030876
0.455010 0.153266 0.029318
0.488998 0.154347 0.027773
0.522725 0.155421 0.026240
0.556211 0.156486 0.024718
0.589475 0.157544 0.023206
0.622532 0.158596 0.021703
0.655395 0.159642 0.020209
0.688075 0.160682 0.018724
0.720584 0.161716 0.017246
0.752931 0.162745 0.015776
0.785124 0.163770 0.014313
0.817171 0.164789 0.012856
0.849078 0.165805 0.011406
0.880854 0.166816 0.009961
0.912502 0.167823 0.008523
0.944028 0.168826 0.007090
0.975439 0.169825 0.005662
1.006737 0.170821 0.004239
1.037927 0.171813 0.002821
1.069014 0.172803 0.001408
1.100000 0.173788 0.000000
0.000000 0.173893 0.050000
0.048614 0.175440 0.047790
0.090716 0.176779 0.045877
0.130667 0.178051 0.044061
0.169282 0.179279 0.042305
0.206933 0.180477 0.040594
0.243834 0.181651 0.038917
0.280121 0.182806 0.037267
0.315892 0.183944 0.035641
0.351217 0.185068 0.034036
0.386151 0.186180 0.032448
0.420737 0.187280 0.030876
0.455010 0.188371 0.029318
0.488998 0.189452 0.027773
0.522725 0.190525 0.026240
0.556211 0.191591 0.024718
0.589475 0.192649 0.023206
0.622532 0.193701 0.021703
0.655395 0.194747 0.020209
0.688075 0.195786 0.018724
0.720584 0.196821 0.017246
0.752931 0.197850 0.015776
0.785124 0.198874 0.014313
0.817171 0.199894 0.012856
0.849078 0.200909 0.011406
0.880854 0.201920 0.009961
0.912502 0.202927 0.008523
0.944028 0.203930 0.007090
0.975439 0.204930 0.005662
1.006737 0.205926 0.004239
1.037927 0.206918 0.002821
1.069014 0.207907 0.001408
1.100000 0.208893 0.000000
0.000000 0.208121 0.050000
0.048614 0.209668 0.047790
0.090716 0.211008 0.045877
0.130667 0.212279 0.044061
0.169282 0.213508 0.042305
0.206933 0.214706 0.040594
0.243834 0.215880 0.038917
0.280121 0.217034 0.037267
0.315892 0.218172 0.035641
0.351217 0.219296 0.034036
0.386151 0.220408 0.032448
0.420737 0.221508 0.030876
0.455010 0.222599 0.029318
0.488998 0.223680 0.027773
0.522725 0.224753 0.026240
0.556211 0.225819 0.024718
0.589475 0.226877 0.023206
0.622532 0.227929 0.021703
0.655395 0.228975 0.020209
0.688075 0.230015 0.018724
0.720584 0.231049 0.017246
0.752931 0.232078 0.015776
0.785124 0.233103 0.014313
0.817171 0.234122 0.012856
0.849078 0.235137 0.011406
0.880854 0.236148 0.009961
0.912502 0.237155 0.008523
0.944028 0.238159 0.007090
0.975439 0.239158 0.005662
1.006737 0.240154 0.004239
1.037927 0.241146 0.002821
1.069014 0.242135 0.001408
1.100000 0.243121 0.000000
0.000000 0.241667 0.050000
0.048614 0.243214 0.047790
0.090716 0.244553 0.045877
0.130667 0.245825 0.044061
0.169282 0.247053 0.042305
0.206933 0.248251 0.040594
0.243834 0.249425 0.038917
0.280121 0.250580 0.037267
0.315892 0.251718 0.035641
0.351217 0.252842 0.034036
0.386151 0.253954 0.032448
0.420737 0.255054 0.030876
0.455010 0.256145 0.029318
0.488998 0.257226 0.027773
0.522725 0.258299 0.026240
0.556211 0.259365 0.024718
0.589475 0.260423 0.023206
0.622532 0.261475 0.021703
0.655395 0.262521 0.020209
0.688075 0.263560 0.018724
0.720584 0.264595 0.017246
0.752931 0.265624 0.015776
0.785124 0.266648 0.014313
0.817171 0.267668 0.012856
0.849078 0.268683 0.011406
0.880854 0.269694 0.009961
0.912502 0.270701 0.008523
0.944028 0.271704 0.007090
0.975439 0.272704 0.005662
1.006737 0.273700 0.004239
1.037927 0.274692 0.002821
1.069014 0.275681 0.001408
1.100000 0.276667 0.000000
0.000000 0.274656 0.050000
0.048614 0.276202 0.047790
0.090716 0.277542 0.045877
0.130667 0.278813 0.044061
0.169282 0.280042 0.042305
0.206933 0.281240 0.040594
0.243834 0.282414 0.038917
0.280121 0.283569 0.037267
0.315892 0.284707 0.035641
0.351217 0.285831 0.034036
0.386151 0.286942 0.032448
0.420737 0.288043 0.030876
0.455010 0.289133 0.029318
0.488998 0.290215 0.027773
0.522725 0.291288 0.026240
0.556211 0.292353 0.024718
0.589475 0.293412 0.023206
0.622532 0.294463 0.021703
0.655395 0.295509 0.020209
0.688075 0.296549 0.018724
0.720584 0.297583 0.017246
0.752931 0.298613 0.015776
0.785124 0.299637 0.014313
0.817171 0.300656 0.012856
0.849078 0.301672 0.011406
0.880854 0.302683 0.009961
0.912502 0.303690 0.008523
0.944028 0.304693 0.007090
0.975439 0.305692 0.005662
1.006737 0.306688 0.004239
1.037927 0.307681 0.002821
1.069014 0.308670 0.001408
1.100000 0.309656 0.000000
0.000000 0.307175 0.050000
0.048614 0.308721 0.047790
0.090716 0.310061 0.045877
0.130667 0.311332 0.044061
0.169282 0.312561 0.042305
0.206933 0.313759 0.040594
0.243834 0.314933 0.038917
0.280121 0.316088 0.037267
0.315892 0.317226 0.035641
0.351217 0.318350 0.034036
0.386151 0.319461 0.032448
0.420737 0.320562 0.030876
0.455010 0.321652 0.029318
0.488998 0.322734 0.027773
0.522725 0.323807 0.026240
0.556211 0.324872 0.024718
0.589475 0.325931 0.023206
0.622532 0.326982 0.021703
0.655395 0.328028 0.020209
0.688075 0.329068 0.018724
0.720584 0.330102 0.017246
0.752931 0.331131 0.015776
0.785124 0.332156 0.014313
0.817171 0.333175 0.012856
0.849078 0.334191 0.011406
0.880854 0.335202 0.009961
0.912502 0.336209 0.008523
0.944028 0.337212 0.007090
0.975439 0.338211 0.005662
1.006737 0.339207 0.004239
1.037927 0.340200 0.002821
1.069014 0.341189 0.001408
1.100000 0.342175 0.000000
0.000000 0.339289 0.050000
0.048614 0.340835 0.047790
0.090716 0.342175 0.045877
0.130667 0.343446 0.044061
0.169282 0.344675 0.042305
0.206933 0.345873 0.040594
0.243834 0.347047 0.038917
0.280121 0.348201 0.037267
0.315892 0.349340 0.035641
0.351217 0.350464 0.034036
0.386151 0.351575 0.032448
0.420737 0.352676 0.030876
0.455010 0.353766 0.029318
0.488998 0.354848 0.027773
0.522725 0.355921 0.026240
0.556211 0.356986 0.024718
0.589475 0.358045 0.023206
0.622532 0.359096 0.021703
0.655395 0.360142 0.020209
0.688075 0.361182 0.018724
0.720584 0.362216 0.017246
0.752931 0.363245 0.015776
0.785124 0.364270 0.014313
0.817171 0.365289 0.012856
0.849078 0.366305 0.011406
0.880854 0.367316 0.009961
0.912502 0.368323 0.008523
0.944028 0.369326 0.007090
0.975439 0.370325 0.005662
1.006737 0.371321 0.004239
1.037927 0.372313 0.002821
1.069014 0.373303 0.001408
1.100000 0.374289 0.000000
0.000000 0.371047 0.050000
0.048614 0.372594 0.047790
0.090716 0.373933 0.045877
0.130667 0.375204 0.044061
0.169282 0.376433 0.042305
0.206933 0.377631 0.040594
0.243834 0.378805 0.038917
0.280121 0.379960 0.037267
0.315892 0.381098 0.035641
0.351217 0.382222 0.034036
0.386151 0.383333 0.032448
0.420737 0.384434 0.030876
0.455010 0.385524 0.029318
0.488998 0.386606 0.027773
0.522725 0.387679 0.026240
0.556211 0.388744 0.024718
0.589475 0.389803 0.023206
0.622532 0.390855 0.021703
0.655395 0.391900 0.020209
0.688075 0.392940 0.018724
0.720584 0.393974 0.017246
0.752931 0.395004 0.015776
0.785124 0.396028 0.014313
0.817171 0.397048 0.012856
0.849078 0.398063 0.011406
0.880854 0.399074 0.009961
0.912502 0.400081 0.008523
0.944028 0.401084 0.007090
0.975439 0.402083 0.005662
1.006737 0.403079 0.004239
1.037927 0.404072 0.002821
1.069014 0.405061 0.001408
1.100000 0.406047 0.000000
0.000000 0.402489 0.050000
0.048614 0.404035 0.047790
0.090716 0.405375 0.045877
0.130667 0.406646 0.044061
0.169282 0.407875 0.042305
0.206933 0.409073 0.040594
0.243834 0.410247 0.038917
0.280121 0.411401 0.037267
0.315892 0.412540 0.035641
0.351217 0.413664 0.034036
0.386151 0.414775 0.032448
0.420737 0.415876 0.030876
0.455010 0.416966 0.029318
0.488998 0.418048 0.027773
0.522725 0.419121 0.026240
0.556211 0.420186 0.024718
0.589475 0.421245 0.023206
0.622532 0.422296 0.021703
0.655395 0.423342 0.020209
0.688075 0.424382 0.018724
0.720584 0.425416 0.017246
0.752931 0.426445 0.015776
0.785124 0.427470 0.014313
0.817171 0.428489 0.012856
0.849078 0.429505 0.011406
0.880854 0.430516 0.009961
0.912502 0.431523 0.008523
0.944028 0.432526 0.007090
0.975439 0.433525 0.005662
1.006737 0.434521 0.004239
1.037927 0.435513 0.002821
1.069014 0.436503 0.001408
1.100000 0.437489 0.000000
0.000000 0.433645 0.050000
0.048614 0.435192 0.047790
0.090716 0.436532 0.045877
0.130667 0.437803 0.044061
0.169282 0.439032 0.042305
0.206933 0.440230 0.040594
0.243834 0.441404 0.038917
0.280121 0.442558 0.037267
0.315892 0.443696 0.035641
0.351217 0.444820 0.034036
0.386151 0.445932 0.032448
0.420737 0.447032 0.030876
0.455010 0.448123 0.029318
0.488998 0.449204 0.027773
0.522725 0.450277 0.026240
0.556211 0.451343 0.024718
0.589475 0.452401 0.023206
0.622532 0.453453 0.021703
0.655395 0.454499 0.020209
0.688075 0.455539 0.018724
0.720584 0.456573 0.017246
0.752931 0.457602 0.015776
0.785124 0.458627 0.014313
0.817171 0.459646 0.012856
0.849078 0.460661 0.011406
0.880854 0.461673 0.009961
0.912502 0.462679 0.008523
0.944028 0.463683 0.007090
0.975439 0.464682 0.005662
1.006737 0.465678 0.004239
1.037927 0.466670 0.002821
1.069014 0.467659 0.001408
1.100000 0.468645 0.000000
0.000000 0.464543 0.050000
0.048614 0.466090 0.047790
0.090716 0.467430 0.045877
0.130667 0.468701 0.044061
0.169282 0.469930 0.042305
0.206933 0.471128 0.040594
0.243834 0.472302 0.038917
0.280121 0.473456 0.037267
0.315892 0.474594 0.035641
0.351217 0.475718 0.034036
0.386151 0.476830 0.032448
0.420737 0.477930 0.030876
0.455010 0.479021 0.029318
0.488998 0.480102 0.027773
0.522725 0.481175 0.026240
0.556211 0.482241 0.024718
0.589475 0.483299 0.023206
0.622532 0.484351 0.021703
0.655395 0.485397 0.020209
0.688075 0.486437 0.018724
0.720584 0.487471 0.017246
0.752931 0.488500 0.015776
0.785124 0.489524 0.014313
0.817171 0.490544 0.012856
0.849078 0.491559 0.011406
0.880854 0.492570 0.009961
0.912502 0.493577 0.008523
0.944028 0.494581 0.007090
0.975439 0.495580 0.005662
1.006737 0.496576 0.004239
1.037927 0.497568 0.002821
1.069014 0.498557 0.001408
1.100000 0.499543 0.000000
0.000000 0.495204 0.050000
0.048614 0.496751 0.047790
0.090716 0.498091 0.045877
0.130667 0.499362 0.044061
0.169282 0.500590 0.042305
0.206933 0.501788 0.040594
0.243834 0.502963 0.038917
0.280121 0.504117 0.037267
0.315892 0.505255 0.035641
0.351217 0.506379 0.034036
0.386151 0.507491 0.032448
0.420737 0.508591 0.030876
0.455010 0.509682 0.029318
0.488998 0.510763 0.027773
0.522725 0.511836 0.026240
0.556211 0.512902 0.024718
0.589475 0.513960 0.023206
0.622532 0.515012 0.021703
0.655395 0.516058 0.020209
0.688075 0.517097 0.018724
0.720584 0.518132 0.017246
0.752931 0.519161 0.015776
0.785124 0.520185 0.014313
0.817171 0.521205 0.012856
0.849078 0.522220 0.011406
0.880854 0.523231 0.009961
0.912502 0.524238 0.008523
0.944028 0.525241 0.007090
0.975439 0.526241 0.005662
1.006737 0.527237 0.004239
1.037927 0.528229 0.002821
1.069014 0.529218 0.001408
1.100000 0.530204 0.000000
0.000000 0.525647 0.050000
0.048614 0.527193 0.047790
0.090716 0.528533 0.045877
0.130667 0.529804 0.044061
0.169282 0.531033 0.042305
0.206933 0.532231 0.040594
0.243834 0.533405 0.038917
0.280121 0.534560 0.037267
0.315892 0.535698 0.035641
0.351217 0.536822 0.034036
0.386151 0.537933 0.032448
0.420737 0.539034 0.030876
0.455010 0.540124 0.029318
0.488998 0.541206 0.027773
0.522725 0.542279 0.026240
0.556211 0.543344 0.024718
0.589475 0.544403 0.023206
0.622532 0.545455 0.021703
0.655395 0.546500 0.020209
0.688075 0.547540 0.018724
0.720584 0.548574 0.017246
0.752931 0.549604 0.015776
0.785124 0.550628 0.014313
0.817171 0.551648 0.012856
0.849078 0.552663 0.011406
0.880854 0.553674 0.009961
0.912502 0.554681 0.008523
0.944028 0.555684 0.007090
0.975439 0.556683 0.005662
1.006737 0.557679 0.004239
1.037927 0.558672 0.002821
1.069014 0.559661 0.001408
1.100000 0.560647 0.000000
0.000000 0.555887 0.050000
0.048614 0.557434 0.047790
0.090716 0.558773 0.045877
0.130667 0.560044 0.044061
0.169282 0.561273 0.042305
0.206933 0.562471 0.040594
0.243834 0.563645 0.038917
0.280121 0.564800 0.037267
0.315892 0.565938 0.035641
0.351217 0.567062 0.034036
0.386151 0.568173 0.032448
0.420737 0.569274 0.030876
0.455010 0.570364 0.029318
0.488998 0.571446 0.027773
0.522725 0.572519 0.026240
0.556211 0.573584 0.024718
0.589475 0.574643 0.023206
0.622532 0.575695 0.021703
0.655395 0.576740 0.020209
0.688075 0.577780 0.018724
0.720584 0.578814 0.017246
0.752931 0.579844 0.015776
0.785124 0.580868 0.014313
0.817171 0.581888 0.012856
0.849078 0.582903 0.011406
0.880854 0.583914 0.009961
0.912502 0.584921 0.008523
0.944028 0.585924 0.007090
0.975439 0.586923 0.005662
1.006737 0.587919 0.004239
1.037927 0.588912 0.002821
1.069014 0.589901 0.001408
1.100000 0.590887 0.000000
0.000000 0.585938 0.050000
0.048614 0.587485 0.047790
0.090716 0.588825 0.045877
0.130667 0.590096 0.044061
0.169282 0.591325 0.042305
0.206933 0.592522 0.040594
0.243834 0.593697 0.038917
0.280121 0.594851 0.037267
0.315892 0.595989 0.035641
0.351217 0.597113 0.034036
0.386151 0.598225 0.032448
0.420737 0.599325 0.030876
0.455010 0.600416 0.029318
0.488998 0.601497 0.027773
0.522725 0.602570 0.026240
0.556211 0.603636 0.024718
0.589475 0.604694 0.023206
0.622532 0.605746 0.021703
0.655395 0.606792 0.020209
0.688075 0.607832 0.018724
0.720584 0.608866 0.017246
0.752931 0.609895 0.015776
0.785124 0.610919 0.014313
0.817171 0.611939 0.012856
0.849078 0.612954 0.011406
0.880854 0.613965 0.009961
0.912502 0.614972 0.008523
0.944028 0.615976 0.007090
0.975439 0.616975 0.005662
1.006737 0.617971 0.004239
1.037927 0.618963 0.002821
1.069014 0.619952 0.001408
1.100000 0.620938 0.000000
0.000000 0.615813 0.050000
0.048614 0.617360 0.047790
0.090716 0.618700 0.045877
0.130667 0.619971 0.044061
0.169282 0.621200 0.042305
0.206933 0.622398 0.040594
0.243834 0.623572 0.038917
0.280121 0.624726 0.037267
0.315892 0.625865 0.035641
0.351217 0.626989 0.034036
0.386151 0.628100 0.032448
0.420737 0.629201 0.030876
0.455010 0.630291 0.029318
0.488998 0.631372 0.027773
0.522725 0.632446 0.026240
0.556211 0.633511 0.024718
0.589475 0.634569 0.023206
0.622532 0.635621 0.021703
0.655395 0.636667 0.020209
0.688075 0.637707 0.018724
0.720584 0.638741 0.017246
0.752931 0.639770 0.015776
0.785124 0.640795 0.014313
0.817171 0.641814 0.012856
0.849078 0.642830 0.011406
0.880854 0.643841 0.009961
0.912502 0.644848 0.008523
0.944028 0.645851 0.007090
0.975439 0.646850 0.005662
1.006737 0.647846 0.004239
1.037927 0.648838 0.002821
1.069014 0.649827 0.001408
1.100000 0.650813 0.000000
0.000000 0.645523 0.050000
0.048614 0.647070 0.047790
0.090716 0.648409 0.045877
0.130667 0.649681 0.044061
0.169282 0.650909 0.042305
0.206933 0.652107 0.040594
0.243834 0.653281 0.038917
0.280121 0.654436 0.037267
0.315892 0.655574 0.035641
0.351217 0.656698 0.034036
0.386151 0.657810 0.032448
0.420737 0.658910 0.030876
0.455010 0.660001 0.029318
0.488998 0.661082 0.027773
0.522725 0.662155 0.026240
0.556211 0.663221 0.024718
0.589475 0.664279 0.023206
0.622532 0.665331 0.021703
0.655395 0.666376 0.020209
0.688075 0.667416 0.018724
0.720584 0.668451 0.017246
0.752931 0.669480 0.015776
0.785124 0.670504 0.014313
0.817171 0.671524 0.012856
0.849078 0.672539 0.011406
0.880854 0.673550 0.009961
0.912502 0.674557 0.008523
0.944028 0.675560 0.007090
0.975439 0.676560 0.005662
1.006737 0.677555 0.004239
1.037927 0.678548 0.002821
1.069014 0.679537 0.001408
1.100000 0.680523 0.000000
0.000000 0.675076 0.050000
0.048614 0.676623 0.047790
0.090716 0.677963 0.045877
0.130667 0.679234 0.044061
0.169282 0.680463 0.042305
0.206933 0.681661 0.040594
0.243834 0.682835 0.038917
0.280121 0.683989 0.037267
0.315892 0.685128 0.035641
0.351217 0.686252 0.034036
0.386151 0.687363 0.032448
0.420737 0.688464 0.030876
0.455010 0.689554 0.029318
0.488998 0.690636 0.027773
0.522725 0.691709 0.026240
0.556211 0.692774 0.024718
0.589475 0.693833 0.023206
0.622532 0.694884 0.021703
0.655395 0.695930 0.020209
0.688075 0.696970 0.018724
0.720584 0.698004 0.017246
0.752931 0.699033 0.015776
0.785124 0.700058 0.014313
0.817171 0.701077 0.012856
0.849078 0.702093 0.011406
0.880854 0.703104 0.009961
0.912502 0.704111 0.008523
0.944028 0.705114 0.007090
0.975439 0.706113 0.005662
1.006737 0.707109 0.004239
1.037927 0.708101 0.002821
1.069014 0.709091 0.001408
1.100000 0.710076 0.000000
0.000000 0.704483 0.050000
0.048614 0.706029 0.047790
0.090716 0.707369 0.045877
0.130667 0.708640 0.044061
0.169282 0.709869 0.042305
0.206933 0.711067 0.040594
0.243834 0.712241 0.038917
0.280121 0.713396 0.037267
0.315892 0.714534 0.035641
0.351217 0.715658 0.034036
0.386151 0.716769 0.032448
0.420737 0.717870 0.030876
0.455010 0.718960 0.029318
0.488998 0.720042 0.027773
0.522725 0.721115 0.026240
0.556211 0.722180 0.024718
0.589475 0.723239 0.023206
0.622532 0.724290 0.021703
0.655395 0.725336 0.020209
0.688075 0.726376 0.018724
0.720584 0.727410 0.017246
0.752931 0.728439 0.015776
0.785124 0.729464 0.014313
0.817171 0.730483 0.012856
0.849078 0.731499 0.011406
0.880854 0.732510 0.009961
0.912502 0.733517 0.008523
0.944028 0.734520 0.007090
0.975439 0.735519 0.005662
1.006737 0.736515 0.004239
1.037927 0.737508 0.002821
1.069014 0.738497 0.001408
1.100000 0.739483 0.000000
0.000000 0.733749 0.050000
0.048614 0.735296 0.047790
0.090716 0.736635 0.045877
0.130667 0.737906 0.044061
0.169282 0.739135 0.042305
0.206933 0.740333 0.040594
0.243834 0.741507 0.038917
0.280121 0.742662 0.037267
0.315892 0.743800 0.035641
0.351217 0.744924 0.034036
0.386151 0.746036 0.032448
0.420737 0.747136 0.030876
0.455010 0.748226 0.029318
0.488998 0.749308 0.027773
0.522725 0.750381 0.026240
0.556211 0.751447 0.024718
0.589475 0.752505 0.023206
0.622532 0.753557 0.021703
0.655395 0.754602 0.020209
0.688075 0.755642 0.018724
0.720584 0.756677 0.017246
0.752931 0.757706 0.015776
0.785124 0.758730 0.014313
0.817171 0.759750 0.012856
0.849078 0.760765 0.011406
0.880854 0.761776 0.009961
0.912502 0.762783 0.008523
0.944028 0.763786 0.007090
0.975439 0.764786 0.005662
1.006737 0.765781 0.004239
1.037927 0.766774 0.002821
1.069014 0.767763 0.001408
1.100000 0.768749 0.000000
0.000000 0.762882 0.050000
0.048614 0.764429 0.047790
0.090716 0.765769 0.045877
0.130667 0.767040 0.044061
0.169282 0.768269 0.042305
0.206933 0.769467 0.040594
0.243834 0.770641 0.038917
0.280121 0.771795 0.037267
0.315892 0.772934 0.035641
0.351217 0.774058 0.034036
0.386151 0.775169 0.032448
0.420737 0.776270 0.030876
0.455010 0.777360 0.029318
0.488998 0.778441 0.027773
0.522725 0.779515 0.026240
0.556211 0.780580 0.024718
0.589475 0.781638 0.023206
0.622532 0.782690 0.021703
0.655395 0.783736 0.020209
0.688075 0.784776 0.018724
0.720584 0.785810 0.017246
0.752931 0.786839 0.015776
0.785124 0.787864 0.014313
0.817171 0.788883 0.012856
0.849078 0.789899 0.011406
0.880854 0.790910 0.009961
0.912502 0.791917 0.008523
0.944028 0.792920 0.007090
0.975439 0.793919 0.005662
1.006737 0.794915 0.004239
1.037927 0.795907 0.002821
1.069014 0.796896 0.001408
1.100000 0.797882 0.000000
0.000000 0.791890 0.050000
0.048614 0.793436 0.047790
0.090716 0.794776 0.045877
0.130667 0.796047 0.044061
0.169282 0.797276 0.042305
0.206933 0.798474 0.040594
0.243834 0.799648 0.038917
0.280121 0.800802 0.037267
0.315892 0.801941 0.035641
0.351217 0.803065 0.034036
0.386151 0.804176 0.032448
0.420737 0.805277 0.030876
0.455010 0.806367 0.029318
0.488998 0.807449 0.027773
0.522725 0.808522 0.026240
0.556211 0.809587 0.024718
0.589475 0.810646 0.023206
0.622532 0.811697 0.021703
0.655395 0.812743 0.020209
0.688075 0.813783 0.018724
0.720584 0.814817 0.017246
0.752931 0.815846 0.015776
0.785124 0.816871 0.014313
0.817171 0.817890 0.012856
0.849078 0.818906 0.011406
0.880854 0.819917 0.009961
0.912502 0.820924 0.008523
0.944028 0.821927 0.007090
0.975439 0.822926 0.005662
1.006737 0.823922 0.004239
1.037927 0.824914 0.002821
1.069014 0.825904 0.001408
1.100000 0.826890 0.000000
0.000000 0.820776 0.050000
0.048614 0.822323 0.047790
0.090716 0.823662 0.045877
0.130667 0.824934 0.044061
0.169282 0.826162 0.042305
0.206933 0.827360 0.040594
0.243834 0.828534 0.038917
0.280121 0.829689 0.037267
0.315892 0.830827 0.035641
0.351217 0.831951 0.034036
0.386151 0.833063 0.032448
0.420737 0.834163 0.030876
0.455010 0.835254 0.029318
0.488998 0.836335 0.027773
0.522725 0.837408 0.026240
0.556211 0.838474 0.024718
0.589475 0.839532 0.023206
0.622532 0.840584 0.021703
0.655395 0.841629 0.020209
0.688075 0.842669 0.018724
0.720584 0.843704 0.017246
0.752931 0.844733 0.015776
0.785124 0.845757 0.014313
0.817171 0.846777 0.012856
0.849078 0.847792 0.011406
0.880854 0.848803 0.009961
0.912502 0.849810 0.008523
0.944028 0.850813 0.007090
0.975439 0.851813 0.005662
1.006737 0.852808 0.004239
1.037927 0.853801 0.002821
1.069014 0.854790 0.001408
1.100000 0.855776 0.000000
0.000000 0.849547 0.050000
0.048614 0.851094 0.047790
0.090716 0.852433 0.045877
0.130667 0.853705 0.044061
0.169282 0.854933 0.042305
0.206933 0.856131 0.040594
0.243834 0.857305 0.038917
0.280121 0.858460 0.037267
0.315892 0.859598 0.035641
0.351217 0.860722 0.034036
0.386151 0.861834 0.032448
0.420737 0.862934 0.030876
0.455010 0.864025 0.029318
0.488998 0.865106 0.027773
0.522725 0.866179 0.026240
0.556211 0.867245 0.024718
0.589475 0.868303 0.023206
0.622532 0.869355 0.021703
0.655395 0.870401 0.020209
0.688075 0.871440 0.018724
0.720584 0.872475 0.017246
0.752931 0.873504 0.015776
0.785124 0.874528 0.014313
0.817171 0.875548 0.012856
0.849078 0.876563 0.011406
0.880854 0.877574 0.009961
0.912502 0.878581 0.008523
0.944028 0.879584 0.007090
0.975439 0.880584 0.005662
1.006737 0.881580 0.004239
